; generated by PrusaSlicer 2.3.0+win64 on 2021-02-04 at 20:36:14 UTC

; 

; external perimeters extrusion width = 0.45mm
; perimeters extrusion width = 0.45mm
; infill extrusion width = 0.45mm
; solid infill extrusion width = 0.45mm
; top infill extrusion width = 0.40mm
; first layer extrusion width = 0.42mm

M73 P0 R27
M73 Q0 S28
M201 X1000 Y1000 Z200 E5000 ; sets maximum accelerations, mm/sec^2
M203 X200 Y200 Z12 E120 ; sets maximum feedrates, mm/sec
M204 P1250 R1250 T1250 ; sets acceleration (P, T) and retract acceleration (R), mm/sec^2
M205 X8.00 Y8.00 Z0.40 E4.50 ; sets the jerk limits, mm/sec
M205 S0 T0 ; sets the minimum extruding and travel feed rate, mm/sec
M107
;TYPE:Custom
M862.3 P "MK3S" ; printer model check
M862.1 P0.4 ; nozzle diameter check
M115 U3.9.2 ; tell printer latest fw version
G90 ; use absolute coordinates
M83 ; extruder relative mode
M104 S215 ; set extruder temp
M140 S60 ; set bed temp
M190 S60 ; wait for bed temp
M109 S215 ; wait for extruder temp
G28 W ; home all without mesh bed level
G80 ; mesh bed leveling
G1 Y-3.0 F1000.0 ; go outside print area
G92 E0.0
M73 Q0 S27
G1 X60.0 E9.0 F1000.0 ; intro line
G1 X100.0 E12.5 F1000.0 ; intro line
G92 E0.0
M221 S95

; Don't change E values below. Excessive value can damage the printer.
M907 E430 ; set extruder motor current
G21 ; set units to millimeters
G90 ; use absolute coordinates
M83 ; use relative distances for extrusion
M900 K0.05 ; Filament gcode LA 1.5
M900 K30 ; Filament gcode LA 1.0
;LAYER_CHANGE
;Z:0.2
;HEIGHT:0.2
;BEFORE_LAYER_CHANGE
G92 E0.0
;0.2


G1 E-0.80000 F2100.000
G1 Z0.400 F10800.000
;AFTER_LAYER_CHANGE
;0.2
G1 X62.283 Y138.892
G1 Z0.200
G1 E0.80000 F2100.000
M204 S1000
;TYPE:Skirt
;WIDTH:0.42
G1 F1200.000
G1 X64.018 Y138.422 E0.05636
G1 X65.842 Y138.267 E0.05741
G1 X67.800 Y138.469 E0.06171
G1 X69.646 Y139.032 E0.06051
G1 X71.360 Y139.939 E0.06081
G1 X72.913 Y141.199 E0.06268
G1 X73.709 Y142.086 E0.03739
G1 X74.271 Y142.864 E0.03008
G1 X75.164 Y144.570 E0.06037
G1 X75.732 Y146.473 E0.06228
G1 X75.916 Y148.409 E0.06095
G1 X75.730 Y150.329 E0.06049
G1 X75.163 Y152.231 E0.06224
G1 X74.268 Y153.935 E0.06036
G1 X73.566 Y154.885 E0.03703
G1 X72.911 Y155.598 E0.03036
G1 X71.362 Y156.856 E0.06257
G1 X69.645 Y157.765 E0.06091
G1 X67.799 Y158.327 E0.06049
G1 X65.838 Y158.529 E0.06181
G1 X64.624 Y158.462 E0.03814
G1 X63.608 Y158.292 E0.03230
G1 X62.614 Y158.020 E0.03230
G1 X61.640 Y157.642 E0.03276
G1 X60.571 Y157.084 E0.03779
G1 X59.674 Y156.479 E0.03393
G1 X58.878 Y155.810 E0.03262
G1 X58.049 Y154.939 E0.03770
G1 X57.388 Y154.067 E0.03430
G1 X56.851 Y153.176 E0.03261
G1 X56.335 Y152.050 E0.03884
G1 X56.016 Y151.082 E0.03195
G1 X55.821 Y150.056 E0.03276
G1 X55.816 Y146.900 E0.09895
G1 X55.877 Y146.283 E0.01943
G1 X56.136 Y145.309 E0.03160
G1 X56.891 Y143.546 E0.06014
G1 X57.945 Y141.981 E0.05915
G1 X59.235 Y140.669 E0.05770
G1 X60.786 Y139.587 E0.05928
G1 X62.228 Y138.917 E0.04987
G1 X62.387 Y139.259 F10800.000
G1 F1200.000
G1 X64.081 Y138.794 E0.05508
G1 X65.844 Y138.644 E0.05548
G1 X67.727 Y138.839 E0.05936
G1 X69.500 Y139.379 E0.05812
G1 X71.152 Y140.254 E0.05862
G1 X72.646 Y141.466 E0.06031
G1 X73.417 Y142.325 E0.03619
G1 X73.955 Y143.070 E0.02883
G1 X74.815 Y144.712 E0.05811
G1 X75.362 Y146.547 E0.06004
G1 X75.539 Y148.409 E0.05863
G1 X75.361 Y150.253 E0.05810
G1 X74.814 Y152.087 E0.06000
G1 X73.955 Y153.726 E0.05803
G1 X73.274 Y154.647 E0.03591
G1 X72.643 Y155.333 E0.02922
G1 X71.152 Y156.543 E0.06020
G1 X69.500 Y157.417 E0.05860
G1 X67.724 Y157.958 E0.05823
G1 X65.838 Y158.152 E0.05945
G1 X64.663 Y158.087 E0.03688
G1 X63.685 Y157.923 E0.03109
G1 X62.735 Y157.663 E0.03090
G1 X61.796 Y157.299 E0.03158
G1 X60.763 Y156.759 E0.03654
G1 X59.900 Y156.177 E0.03261
G1 X59.136 Y155.535 E0.03131
G1 X58.329 Y154.686 E0.03672
G1 X57.700 Y153.854 E0.03271
G1 X57.183 Y152.996 E0.03142
G1 X56.684 Y151.906 E0.03757
G1 X56.371 Y150.953 E0.03144
G1 X56.197 Y150.026 E0.02959
G1 X56.193 Y146.895 E0.09814
G1 X56.251 Y146.338 E0.01758
G1 X56.506 Y145.391 E0.03075
G1 X57.227 Y143.719 E0.05709
G1 X58.238 Y142.219 E0.05671
G1 X59.488 Y140.949 E0.05589
G1 X60.976 Y139.913 E0.05683
G1 X62.332 Y139.284 E0.04688
G1 X62.490 Y139.625 F10800.000
G1 F1200.000
G1 X64.148 Y139.165 E0.05394
G1 X65.841 Y139.022 E0.05329
G1 X67.650 Y139.208 E0.05700
G1 X69.354 Y139.727 E0.05586
G1 X70.944 Y140.568 E0.05641
G1 X72.379 Y141.732 E0.05793
G1 X73.125 Y142.563 E0.03499
G1 X73.644 Y143.283 E0.02783
G1 X74.468 Y144.858 E0.05573
G1 X74.992 Y146.621 E0.05766
G1 X75.162 Y148.409 E0.05631
G1 X74.991 Y150.181 E0.05584
G1 X74.466 Y151.942 E0.05763
G1 X73.641 Y153.516 E0.05570
G1 X72.982 Y154.408 E0.03480
G1 X72.376 Y155.067 E0.02807
G1 X70.943 Y156.229 E0.05784
G1 X69.356 Y157.069 E0.05630
G1 X67.652 Y157.587 E0.05584
G1 X65.837 Y157.775 E0.05721
G1 X64.935 Y157.736 E0.02830
G1 X63.813 Y157.565 E0.03559
G1 X62.859 Y157.307 E0.03099
G1 X61.955 Y156.957 E0.03038
G1 X60.957 Y156.436 E0.03530
G1 X60.127 Y155.876 E0.03142
G1 X59.394 Y155.260 E0.03000
G1 X58.610 Y154.435 E0.03570
G1 X58.009 Y153.639 E0.03128
G1 X57.516 Y152.819 E0.02998
G1 X57.034 Y151.766 E0.03631
G1 X56.733 Y150.846 E0.03037
G1 X56.574 Y150.003 E0.02690
M73 Q1 S27
G1 X56.570 Y146.899 E0.09730
G1 X56.622 Y146.404 E0.01562
G1 X56.868 Y145.496 E0.02949
G1 X57.571 Y143.875 E0.05541
G1 X58.533 Y142.454 E0.05381
G1 X59.738 Y141.232 E0.05380
G1 X61.166 Y140.238 E0.05454
M73 P1 R27
G1 X62.436 Y139.650 E0.04388
; printing object DET_Bouchon.stl id:0 copy 0
;WIPE_START
G1 F8640.000
G1 X64.148 Y139.165 E-0.41091
G1 X65.654 Y139.037 E-0.34909
;WIPE_END
G1 E-0.04000 F2100.000
G1 Z0.600 F10800.000
G1 X60.079 Y145.943
G1 Z0.200
G1 E0.80000 F2100.000
;TYPE:Perimeter
G1 F1200.000
G1 X60.328 Y145.429 E0.01789
G1 X60.632 Y144.928 E0.01838
G1 X60.986 Y144.453 E0.01858
G1 X61.179 Y144.230 E0.00925
G1 X61.586 Y143.820 E0.01810
G1 X62.036 Y143.445 E0.01838
G1 X62.525 Y143.110 E0.01858
G1 X62.779 Y142.961 E0.00925
G1 X63.297 Y142.706 E0.01810
G1 X63.845 Y142.497 E0.01838
G1 X64.410 Y142.340 E0.01837
G1 X64.986 Y142.237 E0.01837
G1 X65.577 Y142.189 E0.01858
G1 X65.872 Y142.186 E0.00925
G1 X66.455 Y142.222 E0.01832
G1 X66.732 Y142.258 E0.00876
G1 X67.313 Y142.377 E0.01859
G1 X67.874 Y142.548 E0.01837
G1 X68.416 Y142.770 E0.01837
G1 X68.934 Y143.043 E0.01837
G1 X69.425 Y143.364 E0.01837
G1 X69.883 Y143.729 E0.01837
G1 X70.304 Y144.136 E0.01837
G1 X70.686 Y144.581 E0.01837
G1 X71.024 Y145.060 E0.01837
G1 X71.315 Y145.568 E0.01837
G1 X71.557 Y146.102 E0.01837
G1 X71.748 Y146.656 E0.01837
G1 X71.885 Y147.225 E0.01837
G1 X71.969 Y147.805 E0.01836
G1 X71.997 Y148.406 E0.01885
G1 X71.969 Y148.991 E0.01836
G1 X71.885 Y149.571 E0.01837
G1 X71.746 Y150.147 E0.01859
G1 X71.661 Y150.413 E0.00877
G1 X71.449 Y150.950 E0.01810
G1 X71.175 Y151.486 E0.01886
G1 X70.861 Y151.980 E0.01836
G1 X70.500 Y152.442 E0.01837
G1 X70.098 Y152.868 E0.01837
G1 X69.658 Y153.255 E0.01837
G1 X69.183 Y153.598 E0.01837
G1 X68.678 Y153.895 E0.01837
G1 X68.147 Y154.144 E0.01837
G1 X67.595 Y154.341 E0.01837
G1 X67.027 Y154.485 E0.01837
G1 X66.442 Y154.576 E0.01859
G1 X66.163 Y154.599 E0.00876
G1 X65.579 Y154.607 E0.01832
G1 X65.284 Y154.590 E0.00925
G1 X64.697 Y154.514 E0.01858
G1 X64.125 Y154.385 E0.01837
G1 X63.568 Y154.201 E0.01838
G1 X63.039 Y153.971 E0.01810
G1 X62.778 Y153.834 E0.00925
G1 X62.273 Y153.523 E0.01859
G1 X61.813 Y153.175 E0.01810
G1 X61.590 Y152.981 E0.00925
G1 X61.173 Y152.560 E0.01858
G1 X60.801 Y152.107 E0.01838
G1 X60.478 Y151.628 E0.01810
G1 X60.331 Y151.373 E0.00925
G1 X60.015 Y150.685 E0.02373
G1 X65.820 Y150.685 E0.18201
G1 X66.231 Y150.643 E0.01296
G1 X66.484 Y150.578 E0.00820
G1 X66.898 Y150.400 E0.01413
G1 X67.292 Y150.122 E0.01511
G1 X67.586 Y149.810 E0.01344
G1 X67.735 Y149.596 E0.00818
G1 X67.934 Y149.192 E0.01413
G1 X68.051 Y148.724 E0.01511
G1 X68.071 Y148.296 E0.01344
G1 X68.045 Y148.035 E0.00825
G1 X67.925 Y147.584 E0.01464
G1 X67.735 Y147.199 E0.01344
G1 X67.586 Y146.985 E0.00818
G1 X67.277 Y146.660 E0.01406
G1 X66.896 Y146.396 E0.01453
G1 X66.471 Y146.213 E0.01453
G1 X66.017 Y146.120 E0.01452
G1 X60.015 Y146.112 E0.18818
G1 X60.058 Y145.999 E0.00379
G1 X59.511 Y146.382 F10800.000
;TYPE:External perimeter
G1 F1200.000
G1 X59.732 Y145.794 E0.01971
G1 X59.996 Y145.249 E0.01899
G1 X60.319 Y144.717 E0.01949
G1 X60.692 Y144.217 E0.01956
G1 X60.902 Y143.973 E0.01009
G1 X61.331 Y143.542 E0.01907
G1 X61.808 Y143.144 E0.01949
G1 X62.323 Y142.791 E0.01956
G1 X62.601 Y142.629 E0.01009
G1 X63.146 Y142.360 E0.01907
G1 X63.727 Y142.138 E0.01949
G1 X64.326 Y141.972 E0.01949
G1 X64.938 Y141.863 E0.01949
G1 X65.560 Y141.812 E0.01956
G1 X65.882 Y141.809 E0.01009
G1 X66.491 Y141.846 E0.01915
G1 X66.795 Y141.886 E0.00960
G1 X67.406 Y142.011 E0.01957
G1 X68.001 Y142.192 E0.01949
G1 X68.575 Y142.428 E0.01949
G1 X69.126 Y142.718 E0.01949
G1 X69.646 Y143.058 E0.01949
G1 X70.132 Y143.446 E0.01949
G1 X70.579 Y143.877 E0.01949
G1 X70.984 Y144.349 E0.01949
G1 X71.342 Y144.857 E0.01949
G1 X71.651 Y145.396 E0.01949
G1 X71.908 Y145.962 E0.01949
G1 X72.110 Y146.550 E0.01949
G1 X72.256 Y147.154 E0.01949
G1 X72.344 Y147.769 E0.01949
G1 X72.375 Y148.406 E0.01998
G1 X72.344 Y149.027 E0.01949
G1 X72.256 Y149.642 E0.01949
G1 X72.110 Y150.249 E0.01957
G1 X72.017 Y150.540 E0.00960
G1 X71.793 Y151.106 E0.01907
G1 X71.503 Y151.673 E0.01999
G1 X71.169 Y152.198 E0.01949
G1 X70.787 Y152.688 E0.01949
G1 X70.361 Y153.140 E0.01949
G1 X69.893 Y153.550 E0.01949
G1 X69.390 Y153.914 E0.01949
G1 X68.854 Y154.229 E0.01949
G1 X68.291 Y154.493 E0.01949
G1 X67.705 Y154.702 E0.01949
G1 X67.103 Y154.855 E0.01949
G1 X66.486 Y154.950 E0.01957
G1 X66.181 Y154.976 E0.00960
G1 X65.571 Y154.984 E0.01915
G1 X65.249 Y154.966 E0.01009
G1 X64.631 Y154.886 E0.01956
G1 X64.025 Y154.748 E0.01949
G1 X63.434 Y154.554 E0.01949
G1 X62.876 Y154.311 E0.01907
G1 X62.591 Y154.162 E0.01009
G1 X62.060 Y153.834 E0.01957
G1 X61.575 Y153.468 E0.01907
G1 X61.332 Y153.256 E0.01009
G1 X60.893 Y152.813 E0.01956
G1 X60.499 Y152.333 E0.01949
G1 X60.158 Y151.828 E0.01907
G1 X59.998 Y151.550 E0.01009
G1 X59.726 Y150.988 E0.01956
G1 X59.481 Y150.308 E0.02266
G1 X65.801 Y150.308 E0.19816
G1 X66.164 Y150.271 E0.01146
G1 X66.362 Y150.220 E0.00640
G1 X66.713 Y150.069 E0.01198
G1 X67.044 Y149.835 E0.01268
G1 X67.293 Y149.572 E0.01138
G1 X67.409 Y149.404 E0.00639
G1 X67.578 Y149.061 E0.01198
G1 X67.676 Y148.669 E0.01268
G1 X67.693 Y148.306 E0.01138
G1 X67.673 Y148.103 E0.00642
G1 X67.570 Y147.717 E0.01252
G1 X67.409 Y147.392 E0.01138
G1 X67.293 Y147.224 E0.00639
G1 X67.030 Y146.948 E0.01196
G1 X66.712 Y146.727 E0.01213
G1 X66.357 Y146.574 E0.01213
G1 X65.978 Y146.497 E0.01212
G1 X59.481 Y146.488 E0.20373
G1 X59.495 Y146.440 E0.00159
G1 X59.789 Y146.095 F10800.000
;WIPE_START
G1 F8640.000
G1 X59.732 Y145.794 E-0.15894
G1 X59.996 Y145.249 E-0.13987
G1 X60.319 Y144.717 E-0.14355
G1 X60.692 Y144.217 E-0.14406
G1 X60.902 Y143.973 E-0.07432
G1 X61.205 Y143.668 E-0.09925
;WIPE_END
G1 E-0.04000 F2100.000
G1 Z0.600 F10800.000
G1 X68.960 Y143.196
G1 Z0.200
G1 E0.80000 F2100.000
;TYPE:Solid infill
;WIDTH:0.425024
G1 F1200.000
G1 X70.119 Y144.355 E0.05208
G1 X70.463 Y144.755 E0.01676
G1 X70.785 Y145.212 E0.01777
G1 X71.063 Y145.697 E0.01777
G1 X71.180 Y145.956 E0.00904
G1 X68.220 Y142.996 E0.13301
G1 X67.778 Y142.814 E0.01517
G1 X67.375 Y142.691 E0.01339
G1 X71.494 Y146.810 E0.18506
G1 X71.607 Y147.279 E0.01532
G1 X71.638 Y147.495 E0.00693
G1 X66.680 Y142.537 E0.22278
G1 X66.086 Y142.483 E0.01896
G1 X71.699 Y148.096 E0.25223
G1 X71.714 Y148.406 E0.00984
G1 X71.703 Y148.640 E0.00745
G1 X65.539 Y142.476 E0.27695
G1 X65.039 Y142.517 E0.01592
G1 X71.662 Y149.139 E0.29756
G1 X71.586 Y149.604 E0.01497
G1 X64.579 Y142.597 E0.31485
G1 X64.148 Y142.706 E0.01414
G1 X71.481 Y150.040 E0.32951
G1 X71.345 Y150.444 E0.01355
G1 X63.740 Y142.839 E0.34170
G1 X63.354 Y142.993 E0.01322
G1 X66.237 Y145.876 E0.12954
G1 X66.046 Y145.837 E0.00620
G1 X65.657 Y145.836 E0.01236
G1 X62.992 Y143.172 E0.11974
G1 X62.648 Y143.368 E0.01258
G1 X65.116 Y145.836 E0.11088
G1 X64.575 Y145.835 E0.01719
G1 X62.327 Y143.588 E0.10097
G1 X62.023 Y143.824 E0.01224
G1 X64.034 Y145.834 E0.09034
G1 X63.493 Y145.834 E0.01719
G1 X61.733 Y144.074 E0.07909
G1 X61.463 Y144.345 E0.01214
G1 X62.952 Y145.833 E0.06688
G1 X62.411 Y145.832 E0.01719
G1 X61.207 Y144.629 E0.05406
G1 X60.977 Y144.939 E0.01227
G1 X61.869 Y145.832 E0.04011
G1 X61.328 Y145.831 E0.01719
G1 X60.760 Y145.263 E0.02554
G1 X60.559 Y145.602 E0.01253
G1 X60.957 Y146.000 E0.01791
;WIPE_START
G1 F8640.000
G1 X60.559 Y145.602 E-0.13014
G1 X60.760 Y145.263 E-0.09105
G1 X61.328 Y145.831 E-0.18560
G1 X61.869 Y145.832 E-0.12493
G1 X61.170 Y145.133 E-0.22827
;WIPE_END
G1 E-0.04000 F2100.000
G1 Z0.600 F10800.000
G1 X68.077 Y147.716
G1 Z0.200
G1 E0.80000 F2100.000
G1 F1200.000
G1 X71.192 Y150.831 E0.13996
G1 X71.009 Y151.189 E0.01277
G1 X68.344 Y148.523 E0.11977
G1 X68.332 Y148.766 E0.00772
G1 X68.275 Y148.995 E0.00749
G1 X70.811 Y151.531 E0.11397
G1 X70.597 Y151.858 E0.01240
G1 X68.144 Y149.404 E0.11022
G1 X67.963 Y149.764 E0.01278
G1 X70.361 Y152.161 E0.10773
G1 X70.107 Y152.448 E0.01216
G1 X67.729 Y150.070 E0.10681
G1 X67.465 Y150.346 E0.01214
G1 X69.839 Y152.720 E0.10668
G1 X69.551 Y152.973 E0.01217
G1 X67.148 Y150.570 E0.10797
G1 X67.037 Y150.648 E0.00430
G1 X66.791 Y150.753 E0.00850
G1 X69.244 Y153.206 E0.11018
G1 X68.922 Y153.424 E0.01236
G1 X66.391 Y150.894 E0.11370
G1 X66.281 Y150.922 E0.00361
G1 X65.917 Y150.960 E0.01165
G1 X68.581 Y153.624 E0.11973
G1 X68.546 Y153.645 E0.00129
G1 X68.216 Y153.799 E0.01158
G1 X65.385 Y150.968 E0.12722
G1 X64.844 Y150.968 E0.01717
G1 X67.832 Y153.956 E0.13425
G1 X67.427 Y154.091 E0.01356
G1 X64.304 Y150.968 E0.14035
M73 Q2 S27
G1 X63.764 Y150.968 E0.01717
G1 X66.996 Y154.201 E0.14526
G1 X66.531 Y154.276 E0.01498
G1 X63.223 Y150.968 E0.14862
M73 P2 R27
G1 X62.683 Y150.968 E0.01717
G1 X66.033 Y154.318 E0.15053
G1 X65.494 Y154.319 E0.01714
G1 X62.142 Y150.968 E0.15057
G1 X61.602 Y150.968 E0.01717
G1 X64.888 Y154.254 E0.14764
G1 X64.207 Y154.113 E0.02210
G1 X61.062 Y150.968 E0.14131
G1 X60.521 Y150.968 E0.01717
G1 X63.352 Y153.799 E0.12719
G1 X62.918 Y153.588 E0.01533
G1 X62.433 Y153.289 E0.01809
G1 X61.991 Y152.955 E0.01761
G1 X61.811 Y152.798 E0.00760
G1 X60.565 Y151.552 E0.05600
; stop printing object DET_Bouchon.stl id:0 copy 0
M106 S84.15
;LAYER_CHANGE
;Z:0.4
;HEIGHT:0.2
;BEFORE_LAYER_CHANGE
G92 E0.0
;0.4


;WIPE_START
G1 F8640.000
G1 X61.811 Y152.798 E-0.40696
G1 X61.991 Y152.955 E-0.05520
G1 X62.433 Y153.289 E-0.12796
G1 X62.918 Y153.588 E-0.13147
G1 X63.067 Y153.661 E-0.03842
;WIPE_END
G1 E-0.04000 F2100.000
G1 Z0.600 F10800.000
;AFTER_LAYER_CHANGE
;0.4
M104 S210 ; set temperature
G1 X60.571 Y157.084
G1 Z0.400
G1 E0.80000 F2100.000
;TYPE:Skirt
;WIDTH:0.42
G1 F2190
G1 X59.674 Y156.479 E0.03393
G1 X58.878 Y155.810 E0.03262
G1 X58.049 Y154.939 E0.03770
G1 X57.388 Y154.067 E0.03430
G1 X56.851 Y153.176 E0.03261
G1 X56.335 Y152.050 E0.03884
G1 X56.016 Y151.082 E0.03195
G1 X55.821 Y150.056 E0.03276
G1 X55.816 Y146.900 E0.09895
G1 X55.877 Y146.283 E0.01943
G1 X56.136 Y145.309 E0.03160
G1 X56.891 Y143.546 E0.06014
G1 X57.945 Y141.981 E0.05915
G1 X59.235 Y140.669 E0.05770
G1 X60.786 Y139.587 E0.05928
G1 X62.283 Y138.892 E0.05175
G1 X64.018 Y138.422 E0.05636
G1 X65.842 Y138.267 E0.05741
G1 X67.800 Y138.469 E0.06171
G1 X69.646 Y139.032 E0.06051
G1 X71.360 Y139.939 E0.06081
G1 X72.913 Y141.199 E0.06268
G1 X73.709 Y142.086 E0.03739
G1 X74.271 Y142.864 E0.03008
G1 X75.164 Y144.570 E0.06037
G1 X75.732 Y146.473 E0.06228
G1 X75.916 Y148.409 E0.06095
G1 X75.730 Y150.329 E0.06049
G1 X75.163 Y152.231 E0.06224
G1 X74.268 Y153.935 E0.06036
G1 X73.566 Y154.885 E0.03703
G1 X72.911 Y155.598 E0.03036
G1 X71.362 Y156.856 E0.06257
G1 X69.645 Y157.765 E0.06091
G1 X67.799 Y158.327 E0.06049
G1 X65.838 Y158.529 E0.06181
G1 X64.624 Y158.462 E0.03814
G1 X63.608 Y158.292 E0.03230
G1 X62.614 Y158.020 E0.03230
G1 X61.640 Y157.642 E0.03276
G1 X60.625 Y157.112 E0.03591
G1 X60.799 Y156.778 F10800.000
G1 F2190
G1 X59.900 Y156.177 E0.03389
G1 X59.136 Y155.535 E0.03131
G1 X58.329 Y154.686 E0.03672
