; generated by PrusaSlicer 2.3.0+win64 on 2021-02-06 at 17:46:00 UTC

; 

; external perimeters extrusion width = 0.45mm
; perimeters extrusion width = 0.45mm
; infill extrusion width = 0.45mm
; solid infill extrusion width = 0.45mm
; top infill extrusion width = 0.40mm
; support material extrusion width = 0.35mm
; first layer extrusion width = 0.42mm

M73 P0 R31
M73 Q0 S31
M201 X1000 Y1000 Z200 E5000 ; sets maximum accelerations, mm/sec^2
M203 X200 Y200 Z12 E120 ; sets maximum feedrates, mm/sec
M204 P1250 R1250 T1250 ; sets acceleration (P, T) and retract acceleration (R), mm/sec^2
M205 X8.00 Y8.00 Z0.40 E4.50 ; sets the jerk limits, mm/sec
M205 S0 T0 ; sets the minimum extruding and travel feed rate, mm/sec
M107
;TYPE:Custom
M862.3 P "MK3S" ; printer model check
M862.1 P0.4 ; nozzle diameter check
M115 U3.9.2 ; tell printer latest fw version
G90 ; use absolute coordinates
M83 ; extruder relative mode
M104 S215 ; set extruder temp
M140 S80 ; set bed temp
M190 S80 ; wait for bed temp
M109 S215 ; wait for extruder temp
G28 W ; home all without mesh bed level
G80 ; mesh bed leveling
G1 Y-3.0 F1000.0 ; go outside print area
G92 E0.0
G1 X60.0 E9.0 F1000.0 ; intro line
G1 X100.0 E12.5 F1000.0 ; intro line
G92 E0.0
M221 S95

; Don't change E values below. Excessive value can damage the printer.
M907 E430 ; set extruder motor current
G21 ; set units to millimeters
G90 ; use absolute coordinates
M83 ; use relative distances for extrusion
M900 K0.05 ; Filament gcode LA 1.5
M900 K30 ; Filament gcode LA 1.0
;LAYER_CHANGE
;Z:0.2
;HEIGHT:0.2
;BEFORE_LAYER_CHANGE
G92 E0.0
;0.2


G1 E-0.80000 F2100.000
G1 Z0.400 F10800.000
;AFTER_LAYER_CHANGE
;0.2
G1 X111.971 Y94.467
G1 Z0.200
G1 E0.80000 F2100.000
M204 S1000
;TYPE:Skirt
;WIDTH:0.42
G1 F1200.000
G1 X113.180 Y93.126 E0.05661
G1 X114.313 Y92.099 E0.04795
G1 X115.548 Y91.167 E0.04850
G1 X117.071 Y90.242 E0.05588
G1 X118.491 Y89.562 E0.04937
G1 X120.168 Y88.958 E0.05589
G1 X121.664 Y88.583 E0.04836
G1 X123.196 Y88.343 E0.04860
G1 X125.004 Y88.246 E0.05679
G1 X126.802 Y88.343 E0.05646
G1 X128.334 Y88.582 E0.04861
G1 X129.834 Y88.959 E0.04848
G1 X131.510 Y89.563 E0.05588
G1 X132.931 Y90.243 E0.04939
G1 X134.451 Y91.166 E0.05576
G1 X135.685 Y92.097 E0.04847
G1 X136.822 Y93.128 E0.04811
G1 X138.029 Y94.467 E0.05653
G1 X138.947 Y95.719 E0.04867
G1 X139.742 Y97.040 E0.04834
G1 X140.506 Y98.655 E0.05601
G1 X141.032 Y100.137 E0.04931
G1 X141.458 Y101.866 E0.05585
G1 X141.677 Y103.400 E0.04859
G1 X141.754 Y104.950 E0.04864
G1 X141.665 Y106.730 E0.05589
G1 X141.432 Y108.257 E0.04842
G1 X141.063 Y109.761 E0.04857
G1 X140.465 Y111.444 E0.05601
G1 X139.802 Y112.847 E0.04865
G1 X139.016 Y114.177 E0.04844
G1 X137.962 Y115.614 E0.05588
G1 X136.907 Y116.786 E0.04942
G1 X135.588 Y117.984 E0.05589
G1 X134.346 Y118.903 E0.04843
G1 X133.024 Y119.708 E0.04853
G1 X131.393 Y120.486 E0.05667
G1 X129.692 Y121.084 E0.05653
G1 X128.183 Y121.448 E0.04866
G1 X126.655 Y121.672 E0.04843
G1 X124.862 Y121.753 E0.05627
G1 X123.300 Y121.667 E0.04906
G1 X121.539 Y121.392 E0.05589
G1 X120.045 Y121.003 E0.04842
G1 X118.584 Y120.477 E0.04868
G1 X116.973 Y119.706 E0.05601
G1 X115.650 Y118.901 E0.04855
G1 X114.409 Y117.982 E0.04841
G1 X113.076 Y116.769 E0.05653
G1 X112.038 Y115.614 E0.04869
G1 X110.981 Y114.173 E0.05601
G1 X110.197 Y112.844 E0.04840
G1 X109.533 Y111.440 E0.04869
G1 X108.930 Y109.740 E0.05653
G1 X108.518 Y108.007 E0.05586
G1 X108.310 Y106.448 E0.04934
G1 X108.246 Y104.926 E0.04775
G1 X108.351 Y103.126 E0.05653
G1 X108.593 Y101.612 E0.04806
G1 X108.974 Y100.117 E0.04839
G1 X109.495 Y98.653 E0.04871
G1 X110.257 Y97.042 E0.05589
G1 X111.056 Y95.716 E0.04855
G1 X111.935 Y94.515 E0.04666
G1 X112.239 Y94.738 F10800.000
G1 F1200.000
G1 X113.445 Y93.394 E0.05662
G1 X114.554 Y92.389 E0.04692
G1 X115.758 Y91.480 E0.04729
G1 X117.248 Y90.574 E0.05468
G1 X118.635 Y89.911 E0.04819
G1 X120.276 Y89.319 E0.05471
G1 X121.740 Y88.952 E0.04731
G1 X123.234 Y88.718 E0.04742
G1 X125.003 Y88.623 E0.05555
G1 X126.766 Y88.719 E0.05535
G1 X128.260 Y88.952 E0.04741
G1 X129.722 Y89.319 E0.04728
G1 X131.367 Y89.912 E0.05480
G1 X132.750 Y90.573 E0.04808
G1 X134.241 Y91.480 E0.05471
G1 X135.445 Y92.388 E0.04730
G1 X136.555 Y93.394 E0.04696
G1 X137.739 Y94.708 E0.05543
G1 X138.633 Y95.928 E0.04745
G1 X139.409 Y97.217 E0.04717
G1 X140.158 Y98.801 E0.05492
G1 X140.742 Y100.484 E0.05588
G1 X141.088 Y101.940 E0.04691
G1 X141.301 Y103.434 E0.04731
G1 X141.377 Y104.948 E0.04755
G1 X141.289 Y106.695 E0.05483
G1 X141.063 Y108.183 E0.04720
G1 X140.702 Y109.652 E0.04743
G1 X140.116 Y111.303 E0.05492
G1 X139.470 Y112.668 E0.04734
G1 X138.703 Y113.968 E0.04735
G1 X137.669 Y115.378 E0.05480
G1 X136.641 Y116.518 E0.04813
G1 X135.350 Y117.692 E0.05471
G1 X134.139 Y118.588 E0.04725
G1 X132.845 Y119.376 E0.04749
G1 X131.250 Y120.138 E0.05543
G1 X129.582 Y120.723 E0.05540
G1 X128.110 Y121.078 E0.04748
G1 X126.617 Y121.297 E0.04733
G1 X124.863 Y121.376 E0.05504
G1 X123.341 Y121.292 E0.04779
G1 X121.613 Y121.023 E0.05483
G1 X120.156 Y120.643 E0.04723
G1 X118.730 Y120.129 E0.04751
G1 X117.153 Y119.375 E0.05482
G1 X115.860 Y118.587 E0.04747
G1 X114.650 Y117.691 E0.04723
G1 X113.343 Y116.502 E0.05540
G1 X112.329 Y115.375 E0.04754
G1 X111.295 Y113.964 E0.05483
G1 X110.529 Y112.667 E0.04724
G1 X109.882 Y111.297 E0.04749
G1 X109.292 Y109.635 E0.05531
G1 X108.888 Y107.934 E0.05480
G1 X108.686 Y106.414 E0.04808
G1 X108.623 Y104.925 E0.04673
G1 X108.726 Y103.165 E0.05528
G1 X108.962 Y101.686 E0.04696
G1 X109.335 Y100.226 E0.04726
G1 X109.843 Y98.799 E0.04748
G1 X110.590 Y97.218 E0.05483
G1 X111.367 Y95.929 E0.04718
G1 X112.204 Y94.786 E0.04441
; printing object transmetteur.stl id:0 copy 0
;WIPE_START
G1 F8640.000
G1 X113.445 Y93.394 E-0.43075
G1 X114.502 Y92.436 E-0.32925
;WIPE_END
G1 E-0.04000 F2100.000
G1 Z0.600 F10800.000
G1 X134.804 Y112.351
G1 Z0.200
G1 E0.80000 F2100.000
;TYPE:Support material
G1 F1200.000
G1 X134.804 Y97.935 E0.45199
M73 P1 R31
M73 Q1 S31
G1 X134.413 Y97.421 E0.02026
G1 X134.050 Y97.421 E0.01139
G1 X134.050 Y112.579 E0.47527
G1 X133.296 Y112.579 E0.02365
G1 X133.296 Y97.421 E0.47527
G1 X132.579 Y97.421 E0.02247
G1 X132.579 Y95.588 E0.05747
G1 X132.542 Y95.558 E0.00150
G1 X132.542 Y114.445 E0.59218
G1 X131.949 Y114.886 E0.02316
G1 X131.787 Y114.886 E0.00508
G1 X131.787 Y95.114 E0.61995
G1 X131.033 Y95.114 E0.02365
G1 X131.033 Y114.886 E0.61995
G1 X130.279 Y114.886 E0.02365
G1 X130.279 Y95.114 E0.61995
G1 X129.525 Y95.114 E0.02365
G1 X129.525 Y114.886 E0.61995
G1 X128.771 Y114.886 E0.02365
G1 X128.771 Y95.114 E0.61995
G1 X128.017 Y95.114 E0.02365
G1 X128.017 Y114.886 E0.61995
G1 X127.262 Y114.886 E0.02365
G1 X127.262 Y95.114 E0.61995
G1 X126.508 Y95.114 E0.02365
G1 X126.508 Y114.886 E0.61995
G1 X125.754 Y114.886 E0.02365
G1 X125.754 Y95.114 E0.61995
G1 X125.000 Y95.114 E0.02365
G1 X125.000 Y114.886 E0.61995
G1 X124.246 Y114.886 E0.02365
G1 X124.246 Y95.114 E0.61995
G1 X123.492 Y95.114 E0.02365
G1 X123.492 Y114.886 E0.61995
G1 X122.738 Y114.886 E0.02365
G1 X122.738 Y95.114 E0.61995
G1 X121.983 Y95.114 E0.02365
G1 X121.983 Y114.886 E0.61995
G1 X121.229 Y114.886 E0.02365
G1 X121.229 Y95.114 E0.61995
G1 X120.475 Y95.114 E0.02365
G1 X120.475 Y114.886 E0.61995
M73 P2 R31
M73 Q2 S31
G1 X119.721 Y114.886 E0.02365
G1 X119.721 Y95.114 E0.61995
G1 X118.967 Y95.114 E0.02365
G1 X118.967 Y114.886 E0.61995
G1 X118.213 Y114.886 E0.02365
G1 X118.213 Y95.114 E0.61995
G1 X118.048 Y95.114 E0.00515
G1 X117.458 Y95.558 E0.02315
G1 X117.458 Y114.445 E0.59218
G1 X117.421 Y114.414 E0.00152
G1 X117.421 Y112.579 E0.05753
G1 X116.704 Y112.579 E0.02247
G1 X116.704 Y97.421 E0.47527
G1 X115.950 Y97.421 E0.02365
G1 X115.950 Y112.579 E0.47527
G1 X115.588 Y112.579 E0.01136
G1 X115.196 Y112.068 E0.02020
G1 X115.196 Y97.646 E0.45218
G1 X114.720 Y97.287 F10800.000
;TYPE:External perimeter
G1 F1200.000
G1 X115.031 Y96.874 E0.01621
G1 X115.693 Y96.125 E0.03135
G1 X116.396 Y95.441 E0.03075
G1 X116.774 Y95.114 E0.01567
G1 X117.560 Y94.510 E0.03109
G1 X117.977 Y94.227 E0.01580
G1 X118.818 Y93.723 E0.03075
G1 X119.713 Y93.277 E0.03135
G1 X120.621 Y92.908 E0.03075
G1 X121.097 Y92.746 E0.01574
G1 X121.578 Y92.603 E0.01574
G1 X122.532 Y92.378 E0.03075
G1 X123.518 Y92.225 E0.03128
G1 X124.016 Y92.177 E0.01567
G1 X124.996 Y92.139 E0.03075
G1 X125.995 Y92.177 E0.03135
G1 X126.969 Y92.291 E0.03075
G1 X127.465 Y92.378 E0.01580
G1 X128.432 Y92.606 E0.03115
G1 X129.367 Y92.903 E0.03075
G1 X129.837 Y93.084 E0.01580
G1 X130.743 Y93.493 E0.03115
G1 X131.603 Y93.964 E0.03075
G1 X132.030 Y94.231 E0.01580
G1 X132.841 Y94.806 E0.03115
G1 X133.595 Y95.433 E0.03075
G1 X133.963 Y95.777 E0.01580
G1 X134.644 Y96.492 E0.03095
G1 X134.970 Y96.876 E0.01580
G1 X135.562 Y97.661 E0.03082
G1 X135.841 Y98.080 E0.01580
G1 X136.337 Y98.927 E0.03075
G1 X136.773 Y99.822 E0.03122
G1 X137.138 Y100.748 E0.03121
G1 X137.426 Y101.685 E0.03075
G1 X137.546 Y102.173 E0.01574
G1 X137.647 Y102.665 E0.01574
G1 X137.788 Y103.635 E0.03075
G1 X137.855 Y104.633 E0.03135
G1 X137.846 Y105.613 E0.03075
G1 X137.812 Y106.112 E0.01567
G1 X137.689 Y107.095 E0.03109
G1 X137.597 Y107.591 E0.01580
G1 X137.363 Y108.543 E0.03075
G1 X137.051 Y109.493 E0.03135
G1 X136.673 Y110.398 E0.03075
G1 X136.453 Y110.852 E0.01580
G1 X135.970 Y111.713 E0.03096
G1 X135.699 Y112.138 E0.01580
G1 X135.124 Y112.932 E0.03075
G1 X134.478 Y113.693 E0.03128
G1 X134.133 Y114.055 E0.01567
G1 X133.418 Y114.723 E0.03068
G1 X133.031 Y115.045 E0.01580
G1 X132.236 Y115.631 E0.03095
G1 X131.814 Y115.907 E0.01580
G1 X130.963 Y116.394 E0.03075
G1 X130.066 Y116.821 E0.03115
G1 X129.599 Y117.010 E0.01580
G1 X128.671 Y117.326 E0.03075
G1 X127.706 Y117.573 E0.03121
G1 X126.726 Y117.745 E0.03121
G1 X125.750 Y117.839 E0.03075
G1 X125.246 Y117.859 E0.01581
G1 X124.252 Y117.840 E0.03115
G1 X123.276 Y117.745 E0.03075
G1 X122.288 Y117.572 E0.03148
G1 X121.338 Y117.328 E0.03075
G1 X120.391 Y117.006 E0.03135
G1 X119.490 Y116.620 E0.03075
G1 X119.042 Y116.397 E0.01567
G1 X118.177 Y115.901 E0.03128
G1 X117.366 Y115.350 E0.03075
G1 X116.582 Y114.723 E0.03147
G1 X115.865 Y114.053 E0.03075
G1 X115.190 Y113.316 E0.03135
G1 X114.584 Y112.545 E0.03075
G1 X114.027 Y111.709 E0.03148
G1 X113.548 Y110.854 E0.03075
G1 X113.131 Y109.952 E0.03115
G1 X112.946 Y109.483 E0.01580
G1 X112.639 Y108.552 E0.03075
G1 X112.402 Y107.585 E0.03121
G1 X112.240 Y106.603 E0.03121
G1 X112.155 Y105.626 E0.03075
G1 X112.145 Y104.622 E0.03147
G1 X112.211 Y103.644 E0.03075
G1 X112.354 Y102.660 E0.03115
G1 X112.455 Y102.167 E0.01580
G1 X112.707 Y101.219 E0.03075
G1 X113.036 Y100.281 E0.03115
G1 X113.230 Y99.816 E0.01580
G1 X113.659 Y98.934 E0.03075
G1 X114.161 Y98.077 E0.03115
G1 X114.441 Y97.657 E0.01581
G1 X114.684 Y97.335 E0.01266
G1 X114.560 Y96.921 F10800.000
G1 X114.371 Y97.110
G1 F1200.000
G1 X114.851 Y96.503 E0.02426
G1 X115.338 Y95.951 E0.02311
G1 X115.679 Y95.600 E0.01532
G1 X116.068 Y95.230 E0.01683
G1 X116.778 Y94.625 E0.02926
G1 X117.609 Y94.018 E0.03226
M73 P2 R30
G1 X118.401 Y93.525 E0.02926
G1 X118.828 Y93.289 E0.01531
G1 X119.308 Y93.049 E0.01683
G1 X120.164 Y92.678 E0.02926
G1 X121.136 Y92.339 E0.03226
G1 X122.038 Y92.098 E0.02926
G1 X122.563 Y91.988 E0.01683
G1 X123.044 Y91.907 E0.01530
G1 X123.972 Y91.802 E0.02927
G1 X125.049 Y91.762 E0.03380
G1 X125.982 Y91.798 E0.02928
G1 X126.468 Y91.843 E0.01530
G1 X127.000 Y91.914 E0.01682
G1 X127.917 Y92.088 E0.02926
G1 X128.911 Y92.353 E0.03226
G1 X129.792 Y92.660 E0.02926
G1 X130.242 Y92.845 E0.01524
G1 X131.172 Y93.290 E0.03232
G1 X131.981 Y93.753 E0.02926
G1 X132.430 Y94.045 E0.01678
G1 X133.185 Y94.597 E0.02932
G1 X133.600 Y94.937 E0.01683
G1 X133.965 Y95.260 E0.01530
G1 X134.629 Y95.917 E0.02927
G1 X135.307 Y96.693 E0.03232
G1 X135.634 Y97.117 E0.01677
G1 X136.165 Y97.886 E0.02932
G1 X136.443 Y98.344 E0.01678
G1 X136.884 Y99.167 E0.02928
G1 X137.301 Y100.109 E0.03230
G1 X137.473 Y100.564 E0.01525
G1 X137.754 Y101.454 E0.02926
G1 X137.990 Y102.455 E0.03226
G1 X138.137 Y103.377 E0.02926
G1 X138.193 Y103.911 E0.01683
G1 X138.224 Y104.398 E0.01530
G1 X138.233 Y105.331 E0.02926
G1 X138.168 Y106.358 E0.03226
G1 X138.039 Y107.282 E0.02927
G1 X137.937 Y107.809 E0.01683
G1 X137.811 Y108.331 E0.01683
G1 X137.545 Y109.225 E0.02926
G1 X137.179 Y110.187 E0.03226
G1 X136.784 Y111.033 E0.02926
G1 X136.554 Y111.463 E0.01531
G1 X136.282 Y111.926 E0.01684
G1 X135.765 Y112.704 E0.02927
G1 X135.135 Y113.516 E0.03225
G1 X134.509 Y114.209 E0.02926
G1 X134.128 Y114.587 E0.01683
G1 X133.768 Y114.917 E0.01530
G1 X133.048 Y115.510 E0.02926
G1 X132.206 Y116.104 E0.03232
G1 X131.792 Y116.362 E0.01527
G1 X131.150 Y116.722 E0.02309
G1 X130.490 Y117.046 E0.02306
G1 X129.997 Y117.258 E0.01681
G1 X129.119 Y117.580 E0.02933
G1 X128.652 Y117.724 E0.01530
G1 X128.133 Y117.861 E0.01684
G1 X127.220 Y118.050 E0.02926
G1 X126.199 Y118.183 E0.03226
G1 X125.268 Y118.236 E0.02927
G1 X124.781 Y118.236 E0.01526
G1 X123.752 Y118.179 E0.03231
G1 X122.827 Y118.058 E0.02926
G1 X122.301 Y117.960 E0.01678
G1 X121.393 Y117.736 E0.02932
G1 X120.879 Y117.580 E0.01684
G1 X120.417 Y117.419 E0.01533
G1 X119.734 Y117.144 E0.02309
G1 X119.067 Y116.834 E0.02309
G1 X118.634 Y116.607 E0.01531
G1 X118.169 Y116.338 E0.01685
G1 X117.387 Y115.829 E0.02926
G1 X116.569 Y115.205 E0.03226
G1 X115.870 Y114.586 E0.02926
G1 X115.525 Y114.244 E0.01524
G1 X114.834 Y113.479 E0.03232
G1 X114.262 Y112.742 E0.02926
G1 X113.984 Y112.342 E0.01524
G1 X113.446 Y111.463 E0.03233
G1 X113.020 Y110.633 E0.02926
G1 X112.801 Y110.142 E0.01683
G1 X112.620 Y109.689 E0.01530
G1 X112.321 Y108.805 E0.02926
G1 X112.054 Y107.761 E0.03379
G1 X111.891 Y106.842 E0.02927
G1 X111.788 Y105.823 E0.03213
G1 X111.763 Y104.888 E0.02932
G1 X111.779 Y104.353 E0.01678
G1 X111.857 Y103.423 E0.02926
G1 X112.019 Y102.407 E0.03226
G1 X112.234 Y101.499 E0.02926
G1 X112.543 Y100.522 E0.03213
G1 X112.889 Y99.655 E0.02926
G1 X113.340 Y98.731 E0.03226
G1 X113.812 Y97.925 E0.02928
G1 X114.336 Y97.159 E0.02910
G1 X114.768 Y97.155 F10800.000
; stop printing object transmetteur.stl id:0 copy 0
M106 S84.15
;LAYER_CHANGE
;Z:0.4
;HEIGHT:0.2
;BEFORE_LAYER_CHANGE
G92 E0.0
;0.4


;WIPE_START
G1 F8640.000
G1 X114.851 Y96.503 E-0.19248
M73 Q2 S30
G1 X115.338 Y95.951 E-0.17016
G1 X115.679 Y95.600 E-0.11281
G1 X116.068 Y95.230 E-0.12393
G1 X116.597 Y94.779 E-0.16062
;WIPE_END
G1 E-0.04000 F2100.000
G1 Z0.600 F10800.000
;AFTER_LAYER_CHANGE
;0.4
M104 S210 ; set temperature
G1 X115.548 Y91.167
G1 Z0.400
G1 E0.80000 F2100.000
;TYPE:Skirt
G1 F2750
G1 X117.071 Y90.242 E0.05588
G1 X118.491 Y89.562 E0.04937
G1 X120.168 Y88.958 E0.05589
G1 X121.664 Y88.583 E0.04836
G1 X123.196 Y88.343 E0.04860
G1 X125.004 Y88.246 E0.05679
G1 X126.802 Y88.343 E0.05646
G1 X128.334 Y88.582 E0.04861
G1 X129.834 Y88.959 E0.04848
G1 X131.510 Y89.563 E0.05588
G1 X132.931 Y90.243 E0.04939
G1 X134.451 Y91.166 E0.05576
G1 X135.685 Y92.097 E0.04847
G1 X136.822 Y93.128 E0.04811
G1 X138.029 Y94.467 E0.05653
G1 X138.947 Y95.719 E0.04867
G1 X139.742 Y97.040 E0.04834
G1 X140.506 Y98.655 E0.05601
G1 X141.032 Y100.137 E0.04931
G1 X141.458 Y101.866 E0.05585
G1 X141.677 Y103.400 E0.04859
G1 X141.754 Y104.950 E0.04864
G1 X141.665 Y106.730 E0.05589
G1 X141.432 Y108.257 E0.04842
G1 X141.063 Y109.761 E0.04857
G1 X140.465 Y111.444 E0.05601
G1 X139.802 Y112.847 E0.04865
G1 X139.016 Y114.177 E0.04844
G1 X137.962 Y115.614 E0.05588
G1 X136.907 Y116.786 E0.04942
G1 X135.588 Y117.984 E0.05589
G1 X134.346 Y118.903 E0.04843
G1 X133.024 Y119.708 E0.04853
G1 X131.393 Y120.486 E0.05667
G1 X129.692 Y121.084 E0.05653
G1 X128.183 Y121.448 E0.04866
G1 X126.655 Y121.672 E0.04843
G1 X124.862 Y121.753 E0.05627
G1 X123.300 Y121.667 E0.04906
G1 X121.539 Y121.392 E0.05589
G1 X120.045 Y121.003 E0.04842
G1 X118.584 Y120.477 E0.04868
G1 X116.973 Y119.706 E0.05601
G1 X115.650 Y118.901 E0.04855
G1 X114.409 Y117.982 E0.04841
G1 X113.076 Y116.769 E0.05653
G1 X112.038 Y115.614 E0.04869
G1 X110.981 Y114.173 E0.05601
G1 X110.197 Y112.844 E0.04840
G1 X109.533 Y111.440 E0.04869
G1 X108.930 Y109.740 E0.05653
G1 X108.518 Y108.007 E0.05586
G1 X108.310 Y106.448 E0.04934
G1 X108.246 Y104.926 E0.04775
G1 X108.351 Y103.126 E0.05653
