;FLAVOR:UltiGCode
;TIME:3111
;MATERIAL:8189
;MATERIAL2:0
;NOZZLE_DIAMETER:0.4
;Generated with Cura_SteamEngine 3.6.0
M82 ;absolute extrusion mode

G92 E0
G10
;LAYER_COUNT:265
;LAYER:0
M107
G0 F3600 X65.008 Y96.307 Z0.3
;TYPE:SKIRT
G11
G1 F1800 X66.522 Y95.363 E0.2141
G1 X66.936 Y95.137 E0.2707
G1 X68.474 Y94.414 E0.47464
G1 X68.911 Y94.239 E0.53113
G1 X70.483 Y93.715 E0.72997
G1 X71.044 Y93.572 E0.79944
G1 X73.332 Y93.163 E1.07836
G1 X73.889 Y93.104 E1.14557
G1 X75.761 Y93.035 E1.37036
G1 X76.246 Y93.046 E1.42858
G1 X77.967 Y93.192 E1.63584
G1 X78.475 Y93.268 E1.69748
G1 X80.328 Y93.669 E1.92498
G1 X80.841 Y93.817 E1.98906
G1 X82.665 Y94.476 E2.22178
G1 X83.092 Y94.659 E2.27753
G1 X84.523 Y95.373 E2.46944
G1 X85.018 Y95.666 E2.53846
G1 X86.895 Y96.969 E2.81266
G1 X87.334 Y97.322 E2.88026
G1 X88.735 Y98.621 E3.10952
G1 X89.066 Y98.967 E3.16698
G1 X90.158 Y100.255 E3.36961
G1 X90.442 Y100.633 E3.42635
G1 X91.378 Y102.046 E3.62974
G1 X91.648 Y102.523 E3.69551
G1 X92.571 Y104.444 E3.95126
G1 X92.761 Y104.911 E4.01176
G1 X93.285 Y106.483 E4.2106
G1 X93.428 Y107.044 E4.28008
G1 X93.837 Y109.332 E4.55899
G1 X93.896 Y109.889 E4.6262
G1 X93.965 Y111.761 E4.851
G1 X93.954 Y112.246 E4.90921
G1 X93.808 Y113.967 E5.11647
G1 X93.732 Y114.475 E5.17811
G1 X93.331 Y116.328 E5.40562
G1 X93.183 Y116.841 E5.46969
G1 X92.524 Y118.665 E5.70242
G1 X92.341 Y119.092 E5.75816
G1 X91.627 Y120.523 E5.95007
G1 X91.373 Y120.961 E6.01083
G1 X90.307 Y122.555 E6.24094
G1 X89.987 Y122.971 E6.30392
G1 X88.751 Y124.378 E6.52866
G1 X88.385 Y124.744 E6.59077
G1 X86.951 Y126.003 E6.81976
G1 X86.559 Y126.306 E6.87922
G1 X85.606 Y126.953 E7.01744
G1 X85.302 Y127.14 E7.06027
G1 X83.596 Y128.088 E7.29447
G1 X83.298 Y128.238 E7.33451
G1 X82.469 Y128.612 E7.44364
G1 X82.089 Y128.761 E7.49262
G1 X80.517 Y129.285 E7.69147
G1 X79.956 Y129.428 E7.76094
G1 X77.668 Y129.837 E8.03985
G1 X77.111 Y129.896 E8.10707
G1 X75.239 Y129.965 E8.33186
G1 X74.754 Y129.954 E8.39007
G1 X73.033 Y129.808 E8.59734
G1 X72.525 Y129.732 E8.65897
G1 X70.672 Y129.331 E8.88648
G1 X70.159 Y129.183 E8.95055
G1 X68.335 Y128.524 E9.18328
G1 X67.908 Y128.341 E9.23903
G1 X66.475 Y127.626 E9.4312
G1 X65.97 Y127.326 E9.50169
G1 X64.051 Y125.985 E9.78263
G1 X63.613 Y125.631 E9.85021
G1 X62.228 Y124.339 E10.07749
G1 X61.905 Y124 E10.13368
G1 X60.841 Y122.744 E10.33121
G1 X60.53 Y122.323 E10.39402
G1 X59.467 Y120.672 E10.62966
G1 X59.232 Y120.255 E10.6871
G1 X58.52 Y118.789 E10.88267
G1 X58.3 Y118.235 E10.9542
G1 X57.574 Y115.914 E11.24602
G1 X57.462 Y115.465 E11.30156
G1 X57.208 Y114.126 E11.4651
G1 X57.146 Y113.64 E11.52389
G1 X57.024 Y111.762 E11.74973
G1 X57.032 Y111.149 E11.82329
G1 X57.245 Y108.75 E12.11231
G1 X57.335 Y108.188 E12.18061
G1 X57.764 Y106.364 E12.40546
G1 X57.913 Y105.876 E12.46669
G1 X58.559 Y104.153 E12.6875
G1 X58.751 Y103.719 E12.74445
G1 X59.525 Y102.223 E12.94657
G1 X59.763 Y101.822 E13.00253
G1 X60.703 Y100.43 E13.20409
G1 X61.014 Y100.028 E13.26508
G1 X62.251 Y98.621 E13.4899
G1 X62.691 Y98.192 E13.56364
G1 X64.56 Y96.631 E13.85586
G1 X65.008 Y96.307 E13.9222
G0 F3600 X65.219 Y96.646
G1 F1800 X66.733 Y95.702 E14.1363
G1 X67.106 Y95.499 E14.18726
G1 X68.644 Y94.776 E14.3912
G1 X69.038 Y94.619 E14.44209
G1 X70.61 Y94.095 E14.64094
G1 X71.115 Y93.966 E14.70348
G1 X73.403 Y93.557 E14.9824
G1 X73.903 Y93.503 E15.04275
G1 X75.775 Y93.434 E15.26754
G1 X76.212 Y93.445 E15.31999
G1 X77.933 Y93.591 E15.52726
G1 X78.39 Y93.659 E15.5827
G1 X80.243 Y94.06 E15.81021
G1 X80.705 Y94.193 E15.8679
G1 X82.529 Y94.852 E16.10063
G1 X82.913 Y95.017 E16.15078
G1 X84.344 Y95.731 E16.34269
G1 X84.79 Y95.995 E16.40488
G1 X86.667 Y97.298 E16.67907
G1 X87.062 Y97.615 E16.73985
G1 X88.463 Y98.914 E16.96912
G1 X88.761 Y99.226 E17.02089
G1 X89.853 Y100.514 E17.22352
G1 X90.108 Y100.854 E17.27452
G1 X91.044 Y102.267 E17.47791
G1 X91.288 Y102.696 E17.53714
G1 X92.211 Y104.617 E17.79288
G1 X92.381 Y105.038 E17.84737
G1 X92.905 Y106.61 E18.04621
G1 X93.034 Y107.115 E18.10876
G1 X93.443 Y109.403 E18.38767
G1 X93.497 Y109.903 E18.44802
G1 X93.566 Y111.775 E18.67281
G1 X93.555 Y112.212 E18.72527
G1 X93.409 Y113.933 E18.93253
G1 X93.341 Y114.39 E18.98797
G1 X92.94 Y116.243 E19.21548
G1 X92.807 Y116.705 E19.27317
G1 X92.148 Y118.529 E19.5059
G1 X91.983 Y118.913 E19.55605
G1 X91.269 Y120.344 E19.74796
G1 X91.04 Y120.738 E19.80265
G1 X89.974 Y122.332 E20.03276
G1 X89.687 Y122.707 E20.08943
G1 X88.451 Y124.114 E20.31416
G1 X88.121 Y124.443 E20.37008
G1 X86.687 Y125.702 E20.59907
G1 X86.334 Y125.975 E20.65262
G1 X85.381 Y126.622 E20.79085
G1 X85.108 Y126.791 E20.82937
G1 X83.402 Y127.739 E21.06358
G1 X83.133 Y127.874 E21.0997
G1 X82.304 Y128.248 E21.20883
G1 X81.962 Y128.381 E21.25286
G1 X80.39 Y128.905 E21.45171
G1 X79.885 Y129.034 E21.51425
G1 X77.597 Y129.443 E21.79317
G1 X77.097 Y129.497 E21.85352
G1 X75.225 Y129.566 E22.07831
G1 X74.788 Y129.555 E22.13077
G1 X73.067 Y129.409 E22.33803
G1 X72.61 Y129.341 E22.39347
G1 X70.757 Y128.94 E22.62098
G1 X70.295 Y128.807 E22.67867
G1 X68.471 Y128.148 E22.9114
G1 X68.087 Y127.983 E22.96155
G1 X66.654 Y127.268 E23.15373
G1 X66.199 Y126.998 E23.21722
G1 X64.28 Y125.657 E23.49815
G1 X63.886 Y125.338 E23.55899
G1 X62.501 Y124.046 E23.78627
G1 X62.21 Y123.741 E23.83686
G1 X61.146 Y122.485 E24.03439
G1 X60.866 Y122.107 E24.09084
G1 X59.803 Y120.456 E24.32647
G1 X59.592 Y120.08 E24.37821
G1 X58.88 Y118.614 E24.57378
G1 X58.682 Y118.116 E24.63809
G1 X57.956 Y115.795 E24.92992
G1 X57.855 Y115.391 E24.97989
G1 X57.601 Y114.052 E25.14344
G1 X57.546 Y113.614 E25.19641
G1 X57.424 Y111.736 E25.42225
G1 X57.43 Y111.185 E25.48837
G1 X57.643 Y108.786 E25.77738
G1 X57.725 Y108.28 E25.83889
G1 X58.154 Y106.456 E26.06375
G1 X58.287 Y106.016 E26.11891
G1 X58.933 Y104.293 E26.33972
G1 X59.107 Y103.903 E26.39097
G1 X59.881 Y102.407 E26.59309
G1 X60.095 Y102.046 E26.64345
G1 X61.035 Y100.654 E26.84501
G1 X61.314 Y100.292 E26.89986
G1 X62.551 Y98.885 E27.12467
G1 X62.947 Y98.499 E27.19103
G1 X64.816 Y96.938 E27.48325
G1 X65.219 Y96.646 E27.54297
G0 F3600 X65.431 Y96.986
G1 F1800 X66.945 Y96.042 E27.75707
G1 X67.277 Y95.861 E27.80244
G1 X68.815 Y95.138 E28.00638
G1 X69.164 Y94.998 E28.0515
G1 X70.736 Y94.474 E28.25035
G1 X71.185 Y94.36 E28.30594
G1 X73.473 Y93.951 E28.58485
G1 X73.918 Y93.903 E28.63856
G1 X75.79 Y93.834 E28.86335
G1 X76.178 Y93.843 E28.90992
G1 X77.899 Y93.989 E29.11719
G1 X78.306 Y94.05 E29.16657
G1 X80.159 Y94.451 E29.39408
G1 X80.569 Y94.569 E29.44528
G1 X82.393 Y95.228 E29.678
G1 X82.735 Y95.375 E29.72267
G1 X84.166 Y96.089 E29.91458
G1 X84.562 Y96.323 E29.96978
G1 X86.439 Y97.626 E30.24397
G1 X86.79 Y97.908 E30.298
G1 X88.191 Y99.207 E30.52727
G1 X88.456 Y99.485 E30.57336
G1 X89.548 Y100.773 E30.77599
G1 X89.775 Y101.075 E30.82133
G1 X90.711 Y102.488 E31.02471
G1 X90.927 Y102.869 E31.07727
G1 X91.85 Y104.79 E31.33302
G1 X92.002 Y105.164 E31.38146
G1 X92.526 Y106.736 E31.58031
G1 X92.64 Y107.185 E31.6359
G1 X93.049 Y109.473 E31.91481
G1 X93.097 Y109.918 E31.96852
G1 X93.166 Y111.79 E32.19331
G1 X93.157 Y112.178 E32.23988
G1 X93.011 Y113.899 E32.44714
G1 X92.95 Y114.306 E32.49653
G1 X92.549 Y116.159 E32.72404
G1 X92.431 Y116.569 E32.77523
G1 X91.772 Y118.393 E33.00796
G1 X91.625 Y118.735 E33.05263
G1 X90.911 Y120.166 E33.24454
G1 X90.708 Y120.516 E33.29309
G1 X89.642 Y122.11 E33.52321
G1 X89.386 Y122.443 E33.57361
G1 X88.15 Y123.85 E33.79834
G1 X87.857 Y124.143 E33.84807
G1 X86.423 Y125.402 E34.07706
G1 X86.109 Y125.645 E34.1247
G1 X85.156 Y126.292 E34.26293
G1 X84.913 Y126.441 E34.29713
G1 X83.207 Y127.389 E34.53134
G1 X82.969 Y127.509 E34.56332
G1 X82.14 Y127.883 E34.67246
G1 X81.836 Y128.002 E34.71163
G1 X80.264 Y128.526 E34.91048
G1 X79.815 Y128.64 E34.96607
G1 X77.527 Y129.049 E35.24498
G1 X77.082 Y129.097 E35.29869
G1 X75.21 Y129.166 E35.52348
G1 X74.822 Y129.157 E35.57005
G1 X73.101 Y129.011 E35.77732
G1 X72.694 Y128.95 E35.8267
G1 X70.841 Y128.549 E36.05421
G1 X70.431 Y128.431 E36.10541
G1 X68.607 Y127.772 E36.33813
G1 X68.265 Y127.625 E36.3828
G1 X66.832 Y126.91 E36.57498
G1 X66.428 Y126.67 E36.63137
G1 X64.509 Y125.329 E36.9123
G1 X64.159 Y125.046 E36.96632
G1 X62.774 Y123.754 E37.1936
G1 X62.515 Y123.482 E37.23867
G1 X61.451 Y122.226 E37.43621
G1 X61.202 Y121.89 E37.48639
G1 X60.139 Y120.239 E37.72202
G1 X59.952 Y119.905 E37.76796
G1 X59.24 Y118.439 E37.96353
G1 X59.064 Y117.996 E38.02073
G1 X58.338 Y115.675 E38.31256
G1 X58.248 Y115.316 E38.35697
G1 X57.994 Y113.977 E38.52052
G1 X57.945 Y113.588 E38.56757
G1 X57.823 Y111.71 E38.7934
G1 X57.829 Y111.22 E38.85221
G1 X58.042 Y108.821 E39.14122
G1 X58.114 Y108.371 E39.1959
G1 X58.543 Y106.547 E39.42076
G1 X58.662 Y106.157 E39.46969
G1 X59.308 Y104.434 E39.6905
G1 X59.462 Y104.087 E39.73606
G1 X60.236 Y102.591 E39.93818
G1 X60.426 Y102.27 E39.98294
G1 X61.366 Y100.878 E40.1845
G1 X61.615 Y100.556 E40.23335
G1 X62.852 Y99.149 E40.45816
G1 X63.204 Y98.806 E40.51714
G1 X65.073 Y97.245 E40.80936
G1 X65.431 Y96.986 E40.86238
G10
;MESH:Raccord-male-femelle.STL
G0 F3600 X71.499 Y96.883
G0 X71.912 Y98.098
G0 X77.306 Y97.824
G0 X77.319 Y97.725
;TYPE:WALL-INNER
G11
G1 F1800 X79.093 Y98.079 E41.07946
G1 X80.818 Y98.665 E41.29808
G1 X82.446 Y99.467 E41.51586
G1 X83.956 Y100.475 E41.73372
G1 X85.323 Y101.677 E41.95216
G1 X86.525 Y103.044 E42.17059
G1 X87.533 Y104.554 E42.38846
G1 X88.335 Y106.182 E42.60623
G1 X88.921 Y107.907 E42.82485
G1 X89.275 Y109.681 E43.04193
G1 X89.393 Y111.5 E43.26067
G1 X89.275 Y113.319 E43.47941
G1 X88.921 Y115.093 E43.69648
G1 X88.335 Y116.818 E43.9151
G1 X87.533 Y118.446 E44.13288
G1 X86.525 Y119.956 E44.35075
G1 X85.323 Y121.323 E44.56918
G1 X83.956 Y122.525 E44.78762
G1 X82.446 Y123.533 E45.00548
G1 X80.818 Y124.335 E45.22326
G1 X79.093 Y124.921 E45.44188
G1 X77.319 Y125.275 E45.65896
G1 X75.5 Y125.393 E45.87769
G1 X73.681 Y125.275 E46.09643
G1 X71.907 Y124.921 E46.31351
G1 X70.182 Y124.335 E46.53213
G1 X68.554 Y123.533 E46.74991
G1 X67.044 Y122.525 E46.96777
G1 X65.677 Y121.323 E47.18621
G1 X64.475 Y119.956 E47.40464
G1 X63.467 Y118.446 E47.62251
G1 X62.665 Y116.818 E47.84029
G1 X62.079 Y115.093 E48.0589
G1 X61.725 Y113.319 E48.27598
G1 X61.607 Y111.5 E48.49472
G1 X61.725 Y109.681 E48.71346
G1 X62.079 Y107.907 E48.93054
G1 X62.665 Y106.182 E49.14915
G1 X63.467 Y104.554 E49.36693
G1 X64.475 Y103.044 E49.5848
G1 X65.677 Y101.677 E49.80323
G1 X67.044 Y100.475 E50.02167
G1 X68.554 Y99.467 E50.23953
G1 X70.182 Y98.665 E50.45731
G1 X71.907 Y98.079 E50.67593
G1 X73.681 Y97.725 E50.89301
G1 X75.5 Y97.607 E51.11175
G1 X77.319 Y97.725 E51.33049
G0 F3600 X77.306 Y97.824
G0 X82.327 Y101.466
G0 X83.751 Y102.601
G0 X84.981 Y103.926
G0 X86.008 Y105.428
G0 X86.642 Y106.747
G0 X87.39 Y108.782
G0 X87.293 Y108.804
G1 F1800 X86.755 Y107.071 E51.54824
G1 X85.974 Y105.448 E51.76437
G1 X84.95 Y103.95 E51.98212
G1 X83.724 Y102.63 E52.1983
G1 X82.305 Y101.499 E52.41605
G1 X80.744 Y100.599 E52.63227
G1 X79.055 Y99.939 E52.84988
G1 X77.298 Y99.537 E53.06617
G1 X75.5 Y99.404 E53.28252
G1 X73.691 Y99.539 E53.5002
G1 X71.935 Y99.941 E53.71637
G1 X70.246 Y100.605 E53.93415
G1 X68.686 Y101.505 E54.15027
G1 X67.268 Y102.638 E54.36808
G1 X66.042 Y103.958 E54.58426
G1 X65.021 Y105.459 E54.8021
G1 X64.24 Y107.082 E55.01824
G1 X63.705 Y108.816 E55.236
G1 X63.437 Y110.596 E55.452
G1 X63.438 Y112.412 E55.66992
G1 X63.706 Y114.193 E55.88605
G1 X64.244 Y115.927 E56.10392
G1 X65.024 Y117.548 E56.31978
G1 X66.049 Y119.049 E56.53789
G1 X67.272 Y120.367 E56.75366
G1 X68.695 Y121.501 E56.97201
G1 X70.251 Y122.398 E57.18753
G1 X71.945 Y123.062 E57.40587
G1 X73.698 Y123.461 E57.62161
G1 X75.5 Y123.596 E57.83845
G1 X77.314 Y123.46 E58.05675
G1 X79.066 Y123.059 E58.27242
G1 X80.758 Y122.393 E58.49062
G1 X82.315 Y121.494 E58.70637
G1 X83.735 Y120.359 E58.92452
G1 X84.959 Y119.041 E59.14036
G1 X85.98 Y117.538 E59.3584
G1 X86.761 Y115.916 E59.57443
G1 X87.296 Y114.181 E59.7923
G1 X87.563 Y112.401 E60.00829
G1 X87.561 Y110.586 E60.22609
G1 X87.293 Y108.804 E60.44233
G0 F3600 X86.902 Y108.894
;TYPE:WALL-OUTER
G1 F1800 X86.382 Y107.218 E60.65291
G1 X85.627 Y105.649 E60.86186
G1 X84.637 Y104.2 E61.07245
G1 X83.451 Y102.924 E61.28149
G1 X82.079 Y101.831 E61.49199
G1 X80.57 Y100.961 E61.70101
G1 X78.937 Y100.322 E61.91144
G1 X77.238 Y99.934 E62.12057
G1 X75.5 Y99.805 E62.3297
G1 X73.751 Y99.936 E62.54017
G1 X72.053 Y100.324 E62.74918
G1 X70.42 Y100.966 E62.95974
G1 X68.912 Y101.836 E63.16866
G1 X67.541 Y102.932 E63.37929
G1 X66.356 Y104.208 E63.58825
G1 X65.368 Y105.659 E63.7989
G1 X64.613 Y107.228 E64.00785
G1 X64.096 Y108.905 E64.21843
G1 X63.837 Y110.626 E64.42728
G1 X63.838 Y112.382 E64.638
G1 X64.097 Y114.103 E64.84684
G1 X64.617 Y115.78 E65.05754
G1 X65.371 Y117.347 E65.26621
G1 X66.362 Y118.799 E65.47717
G1 X67.545 Y120.073 E65.68579
G1 X68.921 Y121.169 E65.89689
G1 X70.425 Y122.037 E66.10527
G1 X72.063 Y122.679 E66.31639
G1 X73.758 Y123.064 E66.52497
G1 X75.5 Y123.195 E66.7346
G1 X77.254 Y123.063 E66.94568
G1 X78.948 Y122.676 E67.15419
G1 X80.584 Y122.032 E67.36518
G1 X82.089 Y121.163 E67.57372
G1 X83.462 Y120.065 E67.78469
G1 X84.645 Y118.791 E67.99331
G1 X85.633 Y117.338 E68.20416
G1 X86.388 Y115.77 E68.413
G1 X86.905 Y114.092 E68.6237
G1 X87.163 Y112.371 E68.83253
G1 X87.161 Y110.616 E69.04313
G1 X86.902 Y108.894 E69.25209
G0 F3600 X86.843 Y108.703
G0 X87.321 Y108.557
G0 X86.792 Y107.057
G0 X86.008 Y105.428
G0 X84.981 Y103.926
G0 X83.751 Y102.601
G0 X82.945 Y101.959
G0 X77.306 Y97.824
G0 X77.37 Y97.328
G1 F1800 X79.202 Y97.693 E69.47625
G1 X80.971 Y98.294 E69.70045
G1 X82.646 Y99.119 E69.92451
G1 X84.201 Y100.158 E70.14893
G1 X85.607 Y101.393 E70.37349
G1 X86.842 Y102.799 E70.59806
G1 X87.881 Y104.354 E70.82248
G1 X88.706 Y106.029 E71.04654
G1 X89.307 Y107.798 E71.27073
G1 X89.672 Y109.63 E71.49489
G1 X89.794 Y111.5 E71.71977
G1 X89.672 Y113.37 E71.94465
G1 X89.307 Y115.202 E72.16881
G1 X88.706 Y116.971 E72.39301
G1 X87.881 Y118.646 E72.61706
G1 X86.842 Y120.201 E72.84148
G1 X85.607 Y121.607 E73.06605
G1 X84.201 Y122.842 E73.29062
G1 X82.646 Y123.881 E73.51504
G1 X80.971 Y124.706 E73.73909
G1 X79.202 Y125.307 E73.96329
G1 X77.37 Y125.672 E74.18745
G1 X75.5 Y125.794 E74.41233
G1 X73.63 Y125.672 E74.63721
G1 X71.798 Y125.307 E74.86137
G1 X70.029 Y124.706 E75.08556
G1 X68.354 Y123.881 E75.30962
G1 X66.799 Y122.842 E75.53404
G1 X65.393 Y121.607 E75.75861
G1 X64.158 Y120.201 E75.98317
G1 X63.119 Y118.646 E76.20759
G1 X62.294 Y116.971 E76.43165
G1 X61.693 Y115.202 E76.65585
G1 X61.328 Y113.37 E76.88001
G1 X61.206 Y111.5 E77.10489
G1 X61.328 Y109.63 E77.32976
G1 X61.693 Y107.798 E77.55392
G1 X62.294 Y106.029 E77.77812
G1 X63.119 Y104.354 E78.00218
G1 X64.158 Y102.799 E78.2266
G1 X65.393 Y101.393 E78.45117
G1 X66.799 Y100.158 E78.67573
G1 X68.354 Y99.119 E78.90015
G1 X70.029 Y98.294 E79.12421
G1 X71.798 Y97.693 E79.34841
G1 X73.63 Y97.328 E79.57257
G1 X75.5 Y97.206 E79.79744
G1 X77.37 Y97.328 E80.02232
G0 F3600 X77.566 Y97.367
G0 X77.468 Y97.856
G0 X77.278 Y98.114
;TYPE:SKIN
G1 F1800 X78.991 Y98.456 E80.23194
G1 X80.672 Y99.027 E80.44498
G1 X82.246 Y99.801 E80.65546
G1 X83.715 Y100.783 E80.8675
G1 X85.046 Y101.954 E81.08023
G1 X86.217 Y103.285 E81.29297
G1 X87.199 Y104.754 E81.50501
G1 X87.973 Y106.328 E81.71549
G1 X88.544 Y108.009 E81.92853
G1 X88.886 Y109.722 E82.13815
G1 X89.001 Y111.5 E82.35195
G1 X88.886 Y113.278 E82.56576
G1 X88.544 Y114.991 E82.77538
G1 X87.973 Y116.672 E82.98842
G1 X87.199 Y118.246 E83.1989
G1 X86.217 Y119.715 E83.41094
G1 X85.046 Y121.046 E83.62367
G1 X83.715 Y122.217 E83.83641
G1 X82.246 Y123.199 E84.04845
G1 X80.672 Y123.973 E84.25893
G1 X78.991 Y124.544 E84.47197
G1 X77.278 Y124.886 E84.68158
G1 X75.5 Y125.001 E84.89539
G1 X73.722 Y124.886 E85.1092
G1 X72.009 Y124.544 E85.31881
G1 X70.328 Y123.973 E85.53185
G1 X68.754 Y123.199 E85.74233
G1 X67.285 Y122.217 E85.95437
G1 X65.954 Y121.046 E86.16711
G1 X64.783 Y119.715 E86.37984
G1 X63.801 Y118.246 E86.59188
G1 X63.027 Y116.672 E86.80237
G1 X62.456 Y114.991 E87.01541
G1 X62.114 Y113.278 E87.22502
G1 X61.999 Y111.5 E87.43883
G1 X62.114 Y109.722 E87.65263
G1 X62.456 Y108.009 E87.86225
G1 X63.027 Y106.328 E88.07529
G1 X63.801 Y104.754 E88.28577
