; generated by PrusaSlicer 2.3.0+win64 on 2021-02-04 at 20:35:27 UTC

; 

; external perimeters extrusion width = 0.45mm
; perimeters extrusion width = 0.45mm
; infill extrusion width = 0.45mm
; solid infill extrusion width = 0.45mm
; top infill extrusion width = 0.40mm
; first layer extrusion width = 0.42mm

M73 P0 R16
M73 Q0 S16
M201 X1000 Y1000 Z200 E5000 ; sets maximum accelerations, mm/sec^2
M203 X200 Y200 Z12 E120 ; sets maximum feedrates, mm/sec
M204 P1250 R1250 T1250 ; sets acceleration (P, T) and retract acceleration (R), mm/sec^2
M205 X8.00 Y8.00 Z0.40 E4.50 ; sets the jerk limits, mm/sec
M205 S0 T0 ; sets the minimum extruding and travel feed rate, mm/sec
M107
;TYPE:Custom
M862.3 P "MK3S" ; printer model check
M862.1 P0.4 ; nozzle diameter check
M115 U3.9.2 ; tell printer latest fw version
G90 ; use absolute coordinates
M83 ; extruder relative mode
M104 S215 ; set extruder temp
M140 S60 ; set bed temp
M190 S60 ; wait for bed temp
M109 S215 ; wait for extruder temp
G28 W ; home all without mesh bed level
G80 ; mesh bed leveling
G1 Y-3.0 F1000.0 ; go outside print area
G92 E0.0
G1 X60.0 E9.0 F1000.0 ; intro line
G1 X100.0 E12.5 F1000.0 ; intro line
G92 E0.0
M221 S95

; Don't change E values below. Excessive value can damage the printer.
M907 E430 ; set extruder motor current
G21 ; set units to millimeters
G90 ; use absolute coordinates
M83 ; use relative distances for extrusion
M900 K0.05 ; Filament gcode LA 1.5
M900 K30 ; Filament gcode LA 1.0
;LAYER_CHANGE
;Z:0.2
;HEIGHT:0.2
;BEFORE_LAYER_CHANGE
G92 E0.0
;0.2


G1 E-0.80000 F2100.000
G1 Z0.400 F10800.000
;AFTER_LAYER_CHANGE
;0.2
G1 X99.244 Y52.638
G1 Z0.200
G1 E0.80000 F2100.000
M204 S1000
;TYPE:Skirt
;WIDTH:0.42
G1 F1200.000
G1 X99.632 Y52.057 E0.02190
G1 X100.174 Y51.612 E0.02201
G1 X100.824 Y51.344 E0.02201
G1 X101.389 Y51.275 E0.01787
G1 X147.798 Y51.275 E1.45511
G1 X148.647 Y51.433 E0.02708
G1 X149.383 Y51.884 E0.02708
G1 X149.910 Y52.569 E0.02708
G1 X150.157 Y53.396 E0.02708
G1 X150.164 Y62.954 E0.29967
M73 P1 R16
M73 Q1 S16
G1 X149.949 Y63.771 E0.02649
G1 X149.262 Y64.886 E0.04107
G1 X147.321 Y67.570 E0.10387
G1 X145.672 Y69.419 E0.07768
G1 X143.850 Y71.143 E0.07864
G1 X141.871 Y72.715 E0.07923
G1 X139.860 Y74.055 E0.07577
G1 X137.614 Y75.289 E0.08036
G1 X135.450 Y76.254 E0.07428
G1 X133.213 Y77.039 E0.07434
G1 X130.801 Y77.669 E0.07816
G1 X128.295 Y78.099 E0.07971
G1 X125.834 Y78.307 E0.07745
G1 X123.360 Y78.308 E0.07757
G1 X120.906 Y78.101 E0.07721
G1 X118.464 Y77.687 E0.07768
G1 X116.075 Y77.071 E0.07733
G1 X113.744 Y76.256 E0.07745
G1 X111.568 Y75.286 E0.07470
G1 X109.326 Y74.054 E0.08019
G1 X107.275 Y72.685 E0.07733
G1 X105.337 Y71.142 E0.07768
G1 X103.601 Y69.504 E0.07482
G1 X101.900 Y67.610 E0.07983
G1 X100.448 Y65.688 E0.07554
G1 X99.338 Y63.959 E0.06442
G1 X99.087 Y63.340 E0.02095
G1 X99.017 Y62.778 E0.01775
G1 X99.042 Y53.310 E0.29685
G1 X99.227 Y52.696 E0.02013
; printing object Clavier.STL id:0 copy 0
;WIPE_START
G1 F8640.000
G1 X99.632 Y52.057 E-0.17454
G1 X100.174 Y51.612 E-0.16211
G1 X100.824 Y51.344 E-0.16211
G1 X101.389 Y51.275 E-0.13161
G1 X101.951 Y51.275 E-0.12962
;WIPE_END
G1 E-0.04000 F2100.000
G1 Z0.600 F10800.000
G1 X121.204 Y63.024
G1 Z0.200
G1 E0.80000 F2100.000
;TYPE:External perimeter
G1 F1200.000
G1 X121.821 Y63.190 E0.02002
G1 X122.344 Y63.248 E0.01651
G1 X123.351 Y63.259 E0.03155
G1 X126.843 Y63.248 E0.10951
G1 X127.368 Y63.190 E0.01654
G1 X127.984 Y63.024 E0.02002
G1 X127.984 Y63.307 E0.00888
G1 X127.883 Y63.792 E0.01551
G1 X127.764 Y64.763 E0.03068
G1 X127.709 Y65.675 E0.02866
G1 X127.485 Y67.009 E0.04240
G1 X127.114 Y68.309 E0.04239
G1 X126.602 Y69.560 E0.04239
G1 X125.954 Y70.750 E0.04248
G1 X125.394 Y71.561 E0.03091
G1 X125.094 Y72.068 E0.01846
G1 X124.955 Y72.393 E0.01109
G1 X124.592 Y72.830 E0.01782
G1 X124.279 Y72.477 E0.01479
G1 X123.970 Y71.858 E0.02170
G1 X123.745 Y71.490 E0.01353
G1 X123.235 Y70.750 E0.02819
G1 X122.586 Y69.560 E0.04248
G1 X122.074 Y68.309 E0.04239
G1 X121.704 Y67.009 E0.04239
G1 X121.480 Y65.675 E0.04240
G1 X121.425 Y64.763 E0.02866
G1 X121.305 Y63.792 E0.03068
G1 X121.204 Y63.307 E0.01551
G1 X121.204 Y63.084 E0.00700
G1 X121.521 Y63.268 F10800.000
;WIPE_START
G1 F8640.000
G1 X121.821 Y63.190 E-0.14448
G1 X122.344 Y63.248 E-0.12161
G1 X123.351 Y63.259 E-0.23236
G1 X124.483 Y63.256 E-0.26155
;WIPE_END
G1 E-0.04000 F2100.000
G1 Z0.600 F10800.000
G1 X127.984 Y62.692
G1 Z0.200
G1 E0.80000 F2100.000
G1 F1200.000
G1 X127.621 Y61.898 E0.02738
G1 X127.364 Y60.959 E0.03051
G1 X127.186 Y60.490 E0.01573
G1 X125.442 Y56.662 E0.13189
G1 X127.785 Y56.662 E0.07345
G1 X127.793 Y60.346 E0.11552
G1 X127.828 Y60.861 E0.01617
G1 X127.984 Y61.850 E0.03141
G1 X127.984 Y62.632 E0.02449
G1 X127.860 Y62.311 F10800.000
;WIPE_START
G1 F8640.000
G1 X127.621 Y61.898 E-0.18910
G1 X127.364 Y60.959 E-0.22472
G1 X127.186 Y60.490 E-0.11585
G1 X126.773 Y59.582 E-0.23034
;WIPE_END
G1 E-0.04000 F2100.000
G1 Z0.600 F10800.000
G1 X121.204 Y62.692
G1 Z0.200
G1 E0.80000 F2100.000
G1 F1200.000
G1 X121.204 Y61.850 E0.02638
G1 X121.360 Y60.861 E0.03141
G1 X121.395 Y60.346 E0.01617
G1 X121.404 Y56.662 E0.11552
G1 X123.746 Y56.662 E0.07345
G1 X122.002 Y60.490 E0.13189
G1 X121.825 Y60.959 E0.01573
G1 X121.568 Y61.898 E0.03051
G1 X121.229 Y62.637 E0.02549
G1 X121.250 Y62.294 F10800.000
G1 X121.636 Y63.531
;TYPE:Perimeter
G1 F1200.000
G1 X121.751 Y63.561 E0.00372
G1 X122.321 Y63.625 E0.01800
G1 X123.349 Y63.636 E0.03223
G1 X126.865 Y63.626 E0.11023
G1 X127.438 Y63.561 E0.01808
G1 X127.552 Y63.531 E0.00372
G1 X127.440 Y64.245 E0.02267
G1 X127.388 Y64.731 E0.01534
G1 X127.334 Y65.632 E0.02831
G1 X127.116 Y66.926 E0.04112
G1 X126.757 Y68.186 E0.04107
G1 X126.261 Y69.398 E0.04107
G1 X125.632 Y70.552 E0.04121
G1 X125.076 Y71.358 E0.03071
G1 X124.757 Y71.897 E0.01965
G1 X124.630 Y72.195 E0.01014
G1 X124.586 Y72.248 E0.00217
G1 X124.300 Y71.675 E0.02006
G1 X124.061 Y71.284 E0.01436
G1 X123.556 Y70.552 E0.02790
G1 X122.927 Y69.398 E0.04121
G1 X122.431 Y68.186 E0.04107
M73 Q2 S16
G1 X122.072 Y66.926 E0.04107
M73 P2 R16
G1 X121.855 Y65.632 E0.04112
G1 X121.801 Y64.731 E0.02831
G1 X121.749 Y64.245 E0.01534
G1 X121.648 Y63.589 E0.02079
;WIPE_START
G1 F8640.000
G1 X121.751 Y63.561 E-0.02450
G1 X122.321 Y63.625 E-0.13259
G1 X123.349 Y63.636 E-0.23735
G1 X124.932 Y63.632 E-0.36557
;WIPE_END
G1 E-0.04000 F2100.000
G1 Z0.600 F10800.000
G1 X127.416 Y60.083
G1 Z0.200
G1 E0.80000 F2100.000
G1 F1200.000
G1 X126.028 Y57.039 E0.10490
G1 X127.408 Y57.039 E0.04328
G1 X127.415 Y60.023 E0.09357
;WIPE_START
G1 F8640.000
G1 X126.028 Y57.039 E-0.75989
G1 X126.029 Y57.039 E-0.00011
;WIPE_END
G1 E-0.04000 F2100.000
G1 Z0.600 F10800.000
G1 X123.160 Y57.039
G1 Z0.200
G1 E0.80000 F2100.000
G1 F1200.000
G1 X121.773 Y60.083 E0.10490
G1 X121.780 Y57.039 E0.09545
G1 X123.100 Y57.039 E0.04139
;WIPE_START
G1 F8640.000
G1 X121.785 Y60.056 E-0.76000
;WIPE_END
G1 E-0.04000 F2100.000
G1 Z0.600 F10800.000
G1 X126.941 Y73.383
G1 Z0.200
G1 E0.80000 F2100.000
;TYPE:External perimeter
G1 F1200.000
G1 X126.334 Y73.438 E0.01912
G1 X125.892 Y73.425 E0.01385
G1 X125.072 Y73.262 E0.02622
G1 X124.117 Y73.262 E0.02993
G1 X123.297 Y73.425 E0.02622
G1 X122.855 Y73.438 E0.01385
G1 X122.247 Y73.383 E0.01912
G1 X121.954 Y72.816 E0.02004
G1 X121.424 Y72.026 E0.02983
G1 X120.635 Y70.607 E0.05090
G1 X120.009 Y69.109 E0.05090
G1 X119.555 Y67.549 E0.05093
G1 X119.279 Y65.949 E0.05092
G1 X119.252 Y65.536 E0.01296
G1 X119.185 Y64.333 E0.03780
G1 X119.184 Y56.346 E0.25041
G1 X119.208 Y55.728 E0.01941
G1 X119.307 Y55.382 E0.01129
G1 X119.502 Y55.073 E0.01143
G1 X119.774 Y54.830 E0.01143
G1 X120.609 Y54.441 E0.02890
G1 X120.920 Y54.366 E0.01004
G1 X121.227 Y54.342 E0.00963
G1 X127.962 Y54.342 E0.21118
G1 X128.268 Y54.366 E0.00963
G1 X128.579 Y54.441 E0.01004
G1 X129.415 Y54.830 E0.02890
G1 X129.687 Y55.073 E0.01143
G1 X129.882 Y55.382 E0.01143
G1 X129.981 Y55.728 E0.01130
G1 X130.004 Y56.346 E0.01941
G1 X130.004 Y64.333 E0.25041
G1 X129.910 Y65.948 E0.05073
G1 X129.634 Y67.549 E0.05094
G1 X129.180 Y69.109 E0.05093
G1 X128.554 Y70.607 E0.05090
G1 X127.972 Y71.672 E0.03805
G1 X127.765 Y72.026 E0.01285
G1 X127.234 Y72.816 E0.02983
G1 X126.968 Y73.330 E0.01815
G1 X126.892 Y73.780 F10800.000
;WIPE_START
G1 F8640.000
G1 X126.334 Y73.438 E-0.14869
G1 X125.892 Y73.425 E-0.10203
G1 X125.072 Y73.262 E-0.19312
G1 X124.117 Y73.262 E-0.22043
G1 X123.710 Y73.343 E-0.09573
;WIPE_END
G1 E-0.04000 F2100.000
G1 Z0.600 F10800.000
G1 X118.996 Y55.168
G1 Z0.200
G1 E0.80000 F2100.000
;TYPE:Perimeter
G1 F1200.000
G1 X118.780 Y54.827 E0.01264
G1 X118.731 Y54.784 E0.00205
G1 X119.257 Y54.786 E0.01647
G1 X119.211 Y54.827 E0.00192
G1 X119.028 Y55.117 E0.01076
;WIPE_START
G1 F8640.000
G1 X118.780 Y54.827 E-0.08807
G1 X118.731 Y54.784 E-0.01507
G1 X119.257 Y54.786 E-0.12128
G1 X119.211 Y54.827 E-0.01413
G1 X119.028 Y55.117 E-0.07926
;WIPE_END
G1 E-0.48219 F2100.000
G1 Z0.600 F10800.000
G1 X116.069 Y57.038
G1 Z0.200
G1 E0.80000 F2100.000
G1 F1200.000
G1 X116.069 Y58.213 E0.03684
G1 X113.484 Y57.033 E0.08910
G1 X116.009 Y57.038 E0.07918
;WIPE_START
G1 F8640.000
G1 X116.069 Y58.213 E-0.27167
G1 X114.146 Y57.335 E-0.48833
;WIPE_END
G1 E-0.04000 F2100.000
G1 Z0.600 F10800.000
G1 X121.653 Y73.040
G1 Z0.200
G1 E0.80000 F2100.000
;TYPE:External perimeter
G1 F1200.000
G1 X121.521 Y73.283 E0.00869
G1 X120.979 Y73.409 E0.01743
G1 X120.548 Y73.454 E0.01360
G1 X119.071 Y73.463 E0.04630
G1 X118.247 Y71.976 E0.05330
G1 X117.607 Y70.528 E0.04965
G1 X117.102 Y69.024 E0.04972
G1 X116.749 Y67.523 E0.04835
G1 X116.519 Y65.910 E0.05109
G1 X116.447 Y64.335 E0.04943
G1 X116.447 Y60.822 E0.11015
G1 X112.708 Y62.531 E0.12888
G1 X112.255 Y62.716 E0.01533
G1 X111.778 Y62.860 E0.01564
G1 X111.314 Y62.953 E0.01484
G1 X110.939 Y63.125 E0.01293
G1 X111.028 Y63.666 E0.01720
G1 X111.236 Y64.068 E0.01420
G1 X111.796 Y65.750 E0.05555
G1 X112.351 Y66.925 E0.04075
G1 X113.049 Y68.020 E0.04073
G1 X113.879 Y69.019 E0.04073
G1 X114.828 Y69.906 E0.04073
G1 X115.882 Y70.667 E0.04076
G1 X117.136 Y71.363 E0.04498
G1 X117.126 Y72.540 E0.03690
G1 X117.076 Y73.026 E0.01532
G1 X116.904 Y73.787 E0.02448
G1 X115.417 Y73.182 E0.05032
G1 X114.053 Y72.468 E0.04829
G1 X112.832 Y71.515 E0.04856
G1 X111.744 Y70.420 E0.04838
G1 X110.797 Y69.203 E0.04836
G1 X110.002 Y67.881 E0.04836
G1 X109.372 Y66.473 E0.04836
G1 X108.915 Y65.000 E0.04836
G1 X108.639 Y63.483 E0.04836
G1 X108.547 Y61.955 E0.04797
M73 P3 R16
M73 Q3 S16
G1 X108.547 Y56.336 E0.17620
G1 X108.574 Y56.005 E0.01040
G1 X108.659 Y55.665 E0.01099
G1 X108.807 Y55.344 E0.01109
G1 X109.019 Y55.056 E0.01121
G1 X109.297 Y54.826 E0.01131
G1 X110.131 Y54.441 E0.02882
G1 X110.442 Y54.366 E0.01002
G1 X110.748 Y54.342 E0.00963
G1 X116.765 Y54.342 E0.18864
G1 X117.071 Y54.366 E0.00963
G1 X117.382 Y54.441 E0.01004
G1 X118.218 Y54.830 E0.02890
G1 X118.490 Y55.073 E0.01143
G1 X118.685 Y55.382 E0.01143
G1 X118.783 Y55.725 E0.01120
G1 X118.805 Y56.054 E0.01034
G1 X118.807 Y64.319 E0.25916
G1 X118.890 Y65.878 E0.04895
G1 X119.135 Y67.413 E0.04874
G1 X119.539 Y68.914 E0.04874
G1 X120.099 Y70.364 E0.04873
G1 X120.809 Y71.748 E0.04877
G1 X121.620 Y72.990 E0.04650
G1 X121.869 Y73.214 F10800.000
;WIPE_START
M73 P3 R15
G1 F8640.000
G1 X121.521 Y73.283 E-0.07163
G1 X120.979 Y73.409 E-0.12839
G1 X120.548 Y73.454 E-0.10012
G1 X119.071 Y73.463 E-0.34097
G1 X118.822 Y73.012 E-0.11889
;WIPE_END
G1 E-0.04000 F2100.000
G1 Z0.600 F10800.000
G1 X112.548 Y71.765
G1 Z0.200
G1 E0.80000 F2100.000
;TYPE:Perimeter
G1 F1200.000
G1 X111.176 Y71.007 E0.04916
G1 X109.371 Y69.801 E0.06805
G1 X107.673 Y68.449 E0.06805
G1 X106.096 Y66.959 E0.06805
G1 X104.649 Y65.341 E0.06805
G1 X103.341 Y63.604 E0.06817
G1 X102.581 Y62.426 E0.04397
G1 X102.581 Y54.838 E0.23789
G1 X108.257 Y54.833 E0.17796
G1 X108.738 Y54.801 E0.01510
G1 X108.480 Y55.151 E0.01362
G1 X108.302 Y55.539 E0.01339
G1 X108.200 Y55.943 E0.01306
G1 X108.170 Y56.320 E0.01186
G1 X108.169 Y61.967 E0.17704
G1 X108.263 Y63.528 E0.04904
G1 X108.548 Y65.090 E0.04978
G1 X109.019 Y66.607 E0.04978
G1 X109.667 Y68.056 E0.04978
G1 X110.485 Y69.417 E0.04978
G1 X111.461 Y70.670 E0.04978
G1 X112.506 Y71.722 E0.04651
;WIPE_START
G1 F8640.000
G1 X111.176 Y71.007 E-0.34877
G1 X109.694 Y70.018 E-0.41123
;WIPE_END
G1 E-0.04000 F2100.000
G1 Z0.600 F10800.000
G1 X117.450 Y71.106
G1 Z0.200
G1 E0.80000 F2100.000
G1 F1200.000
G1 X116.085 Y70.348 E0.04896
G1 X115.068 Y69.614 E0.03931
G1 X114.154 Y68.760 E0.03923
G1 X113.354 Y67.797 E0.03923
G1 X112.682 Y66.742 E0.03923
G1 X112.146 Y65.609 E0.03929
G1 X111.585 Y63.921 E0.05577
G1 X111.390 Y63.546 E0.01325
G1 X111.358 Y63.348 E0.00630
G1 X111.431 Y63.314 E0.00253
G1 X111.870 Y63.226 E0.01403
G1 X112.382 Y63.071 E0.01676
G1 X112.858 Y62.877 E0.01613
G1 X116.069 Y61.409 E0.11072
G1 X116.069 Y64.344 E0.09202
G1 X116.144 Y65.946 E0.05027
G1 X116.378 Y67.593 E0.05218
G1 X116.739 Y69.128 E0.04943
G1 X117.255 Y70.664 E0.05082
G1 X117.426 Y71.051 E0.01325
G1 X117.515 Y71.251 F10800.000
G1 F1200.000
G1 X117.909 Y72.144 E0.03061
G1 X118.850 Y73.841 E0.06084
G1 X120.569 Y73.831 E0.05389
G1 X121.042 Y73.782 E0.01491
G1 X121.771 Y73.612 E0.02349
G1 X121.859 Y73.452 E0.00572
G1 X122.007 Y73.740 E0.01018
G1 X122.843 Y73.815 E0.02632
G1 X123.339 Y73.801 E0.01554
G1 X124.154 Y73.639 E0.02605
G1 X124.975 Y73.639 E0.02574
G1 X125.849 Y73.801 E0.02789
G1 X126.345 Y73.815 E0.01554
G1 X127.181 Y73.740 E0.02632
G1 X127.330 Y73.452 E0.01018
G1 X127.417 Y73.612 E0.00572
G1 X128.147 Y73.782 E0.02349
G1 X128.620 Y73.831 E0.01491
G1 X130.341 Y73.841 E0.05398
G1 X131.279 Y72.145 E0.06075
G1 X131.674 Y71.251 E0.03065
G1 X131.686 Y72.561 E0.04106
G1 X131.740 Y73.087 E0.01659
G1 X131.895 Y73.773 E0.02206
G1 X131.272 Y73.874 E0.01979
G1 X129.983 Y74.200 E0.04169
G1 X127.842 Y74.563 E0.06809
G1 X125.679 Y74.746 E0.06805
G1 X123.509 Y74.746 E0.06805
G1 X121.346 Y74.563 E0.06805
G1 X119.205 Y74.200 E0.06809
G1 X117.916 Y73.874 E0.04169
G1 X117.293 Y73.773 E0.01979
G1 X117.449 Y73.087 E0.02206
G1 X117.503 Y72.561 E0.01658
G1 X117.514 Y71.311 E0.03918
;WIPE_START
G1 F8640.000
G1 X117.909 Y72.144 E-0.21286
G1 X118.850 Y73.841 E-0.44805
G1 X119.279 Y73.839 E-0.09909
;WIPE_END
G1 E-0.04000 F2100.000
G1 Z0.600 F10800.000
G1 X131.741 Y71.100
G1 Z0.200
G1 E0.80000 F2100.000
G1 F1200.000
G1 X131.933 Y70.664 E0.01493
G1 X132.449 Y69.128 E0.05082
G1 X132.821 Y67.550 E0.05082
G1 X133.045 Y65.945 E0.05082
G1 X133.119 Y64.343 E0.05027
G1 X133.112 Y61.787 E0.08017
G1 X133.534 Y62.222 E0.01902
G1 X133.973 Y62.520 E0.01664
G1 X134.454 Y62.737 E0.01652
G1 X134.963 Y62.870 E0.01651
G1 X135.488 Y62.915 E0.01651
G1 X136.012 Y62.870 E0.01651
G1 X136.522 Y62.737 E0.01651
G1 X137.004 Y62.519 E0.01658
G1 X137.448 Y62.214 E0.01690
G1 X137.760 Y61.887 E0.01416
M73 P4 R15
G1 X137.665 Y63.189 E0.04094
M73 Q4 S16
G1 X137.429 Y64.421 E0.03932
G1 X137.041 Y65.611 E0.03923
G1 X136.507 Y66.742 E0.03923
G1 X135.834 Y67.797 E0.03923
G1 X135.035 Y68.760 E0.03924
G1 X134.120 Y69.614 E0.03923
G1 X133.102 Y70.349 E0.03938
G1 X131.793 Y71.071 E0.04686
;WIPE_START
G1 F8640.000
G1 X131.933 Y70.664 E-0.09928
G1 X132.449 Y69.128 E-0.37424
M73 Q4 S15
G1 X132.734 Y67.920 E-0.28648
;WIPE_END
G1 E-0.04000 F2100.000
G1 Z0.600 F10800.000
G1 X130.193 Y55.168
G1 Z0.200
G1 E0.80000 F2100.000
G1 F1200.000
G1 X129.977 Y54.827 E0.01264
G1 X129.932 Y54.786 E0.00192
G1 X130.457 Y54.784 E0.01647
G1 X130.408 Y54.827 E0.00205
G1 X130.225 Y55.117 E0.01076
;WIPE_START
G1 F8640.000
G1 X129.977 Y54.827 E-0.08807
G1 X129.932 Y54.786 E-0.01414
G1 X130.457 Y54.784 E-0.12130
G1 X130.408 Y54.827 E-0.01507
G1 X130.225 Y55.117 E-0.07926
;WIPE_END
G1 E-0.48216 F2100.000
G1 Z0.600 F10800.000
G1 X132.285 Y73.787
G1 Z0.200
G1 E0.80000 F2100.000
;TYPE:External perimeter
G1 F1200.000
G1 X132.113 Y73.026 E0.02448
G1 X132.062 Y72.540 E0.01532
G1 X132.052 Y71.359 E0.03703
G1 X133.304 Y70.668 E0.04484
G1 X134.360 Y69.906 E0.04084
G1 X135.309 Y69.019 E0.04073
G1 X136.140 Y68.020 E0.04073
G1 X136.838 Y66.925 E0.04073
G1 X137.392 Y65.750 E0.04073
G1 X137.795 Y64.515 E0.04073
G1 X138.039 Y63.238 E0.04076
G1 X138.169 Y61.454 E0.05611
G1 X138.311 Y60.527 E0.02940
G1 X138.316 Y59.164 E0.04274
